;FLAVOR:UltiGCode
;TIME:6954
;MATERIAL:13496
;MATERIAL2:0
;NOZZLE_DIAMETER:0.4
;MINX:17.2
;MINY:32.35
;MINZ:0.3
;MAXX:102.8
;MAXY:87.65
;MAXZ:30.45
;Generated with Cura_SteamEngine 4.9.1
M82 ;absolute extrusion mode
G0 F3000 Y50 ;avoid prime blob
G92 E0
G92 E0
G10
;LAYER_COUNT:202
;LAYER:0
M107
G0 F3600 X20.824 Y33.638 Z0.3
;TYPE:SKIRT
G11
G1 F1800 X21.504 Y33.237 E0.09473
G1 X22.222 Y32.907 E0.18956
G1 X22.969 Y32.652 E0.28428
G1 X23.738 Y32.473 E0.37902
G1 X24.522 Y32.373 E0.47386
G1 X25.117 Y32.35 E0.54532
G1 X94.883 Y32.35 E8.91724
G1 X95.672 Y32.39 E9.01204
G1 X96.452 Y32.509 E9.10672
G1 X97.217 Y32.707 E9.20155
G1 X97.957 Y32.981 E9.29624
G1 X98.666 Y33.329 E9.39102
G1 X99.337 Y33.747 E9.48588
G1 X99.961 Y34.23 E9.58057
G1 X100.398 Y34.635 E9.65207
G1 X100.515 Y34.752 E9.67193
G1 X101.045 Y35.338 E9.76674
G1 X101.512 Y35.974 E9.86142
G1 X101.913 Y36.654 E9.95616
G1 X102.243 Y37.372 E10.05098
G1 X102.498 Y38.119 E10.1457
G1 X102.677 Y38.888 E10.24045
G1 X102.777 Y39.672 E10.33529
G1 X102.8 Y40.267 E10.40674
G1 X102.8 Y79.733 E15.14266
G1 X102.76 Y80.522 E15.23746
G1 X102.641 Y81.302 E15.33215
G1 X102.443 Y82.067 E15.42697
G1 X102.169 Y82.807 E15.52166
G1 X101.821 Y83.516 E15.61644
G1 X101.403 Y84.187 E15.71131
G1 X100.92 Y84.811 E15.806
G1 X100.515 Y85.248 E15.87749
G1 X100.398 Y85.365 E15.89735
G1 X99.812 Y85.895 E15.99216
G1 X99.176 Y86.362 E16.08685
G1 X98.496 Y86.763 E16.18158
G1 X97.778 Y87.093 E16.27641
G1 X97.031 Y87.348 E16.37113
G1 X96.262 Y87.527 E16.46587
G1 X95.478 Y87.627 E16.56071
G1 X94.883 Y87.65 E16.63217
G1 X25.117 Y87.65 E25.00409
G1 X24.328 Y87.61 E25.09889
G1 X23.548 Y87.491 E25.19357
G1 X22.783 Y87.293 E25.2884
G1 X22.043 Y87.019 E25.38309
G1 X21.334 Y86.671 E25.47787
G1 X20.663 Y86.253 E25.57273
G1 X20.039 Y85.77 E25.66742
G1 X19.602 Y85.365 E25.73892
G1 X19.485 Y85.248 E25.75877
G1 X18.955 Y84.662 E25.85359
G1 X18.488 Y84.026 E25.94827
G1 X18.087 Y83.346 E26.04301
G1 X17.757 Y82.628 E26.13783
G1 X17.502 Y81.881 E26.23255
G1 X17.323 Y81.112 E26.3273
G1 X17.223 Y80.328 E26.42214
G1 X17.2 Y79.733 E26.49359
G1 X17.2 Y40.267 E31.22951
G1 X17.24 Y39.478 E31.32431
G1 X17.359 Y38.698 E31.419
G1 X17.557 Y37.933 E31.51382
G1 X17.831 Y37.193 E31.60851
G1 X18.179 Y36.484 E31.70329
G1 X18.597 Y35.813 E31.79816
G1 X19.08 Y35.189 E31.89285
G1 X19.485 Y34.752 E31.96434
G1 X19.602 Y34.635 E31.9842
G1 X20.188 Y34.105 E32.07901
G1 X20.824 Y33.638 E32.1737
G0 F3600 X21.078 Y33.95
G1 F1800 X21.743 Y33.564 E32.26597
G1 X22.445 Y33.249 E32.3583
G1 X23.176 Y33.009 E32.45063
G1 X23.927 Y32.846 E32.54285
G1 X24.692 Y32.762 E32.6352
G1 X25.117 Y32.75 E32.68622
G1 X94.883 Y32.75 E41.05814
G1 X95.651 Y32.79 E41.15042
G1 X96.411 Y32.909 E41.24273
G1 X97.154 Y33.107 E41.33501
G1 X97.873 Y33.381 E41.42734
G1 X98.559 Y33.728 E41.51959
G1 X99.206 Y34.144 E41.61189
G1 X99.806 Y34.625 E41.70417
G1 X100.233 Y35.034 E41.77513
G1 X100.747 Y35.606 E41.86741
G1 X101.2 Y36.228 E41.95975
G1 X101.586 Y36.893 E42.05202
G1 X101.901 Y37.595 E42.14435
G1 X102.141 Y38.326 E42.23667
G1 X102.304 Y39.077 E42.32889
G1 X102.388 Y39.842 E42.42124
G1 X102.4 Y40.267 E42.47226
G1 X102.4 Y79.733 E47.20818
G1 X102.36 Y80.501 E47.30047
G1 X102.241 Y81.261 E47.39278
G1 X102.043 Y82.004 E47.48505
G1 X101.769 Y82.723 E47.57738
G1 X101.422 Y83.409 E47.66964
G1 X101.006 Y84.056 E47.76194
G1 X100.525 Y84.656 E47.85422
G1 X100.116 Y85.083 E47.92517
G1 X99.544 Y85.597 E48.01746
G1 X98.922 Y86.05 E48.10979
G1 X98.257 Y86.436 E48.20206
G1 X97.555 Y86.751 E48.29439
G1 X96.824 Y86.991 E48.38672
G1 X96.073 Y87.154 E48.47894
G1 X95.308 Y87.238 E48.57129
G1 X94.883 Y87.25 E48.62231
G1 X25.117 Y87.25 E56.99423
G1 X24.349 Y87.21 E57.08652
G1 X23.589 Y87.091 E57.17883
G1 X22.846 Y86.893 E57.2711
G1 X22.127 Y86.619 E57.36343
G1 X21.441 Y86.272 E57.45568
G1 X20.794 Y85.856 E57.54799
G1 X20.194 Y85.375 E57.64027
G1 X19.767 Y84.966 E57.71122
G1 X19.253 Y84.394 E57.8035
G1 X18.8 Y83.772 E57.89584
G1 X18.414 Y83.107 E57.98811
G1 X18.099 Y82.405 E58.08044
G1 X17.859 Y81.674 E58.17277
G1 X17.696 Y80.923 E58.26499
G1 X17.612 Y80.158 E58.35734
G1 X17.6 Y79.733 E58.40836
G1 X17.6 Y40.267 E63.14428
G1 X17.64 Y39.499 E63.23656
G1 X17.759 Y38.739 E63.32887
G1 X17.957 Y37.996 E63.42115
G1 X18.231 Y37.277 E63.51348
G1 X18.578 Y36.591 E63.60573
G1 X18.994 Y35.944 E63.69803
G1 X19.475 Y35.344 E63.79031
G1 X19.884 Y34.917 E63.86127
G1 X20.456 Y34.403 E63.95355
G1 X21.078 Y33.95 E64.04589
G0 F3600 X21.33 Y34.263
G1 F1800 X21.98 Y33.892 E64.1357
G1 X22.666 Y33.593 E64.2255
G1 X23.38 Y33.369 E64.31529
G1 X24.113 Y33.222 E64.40501
G1 X25.117 Y33.15 E64.5258
G1 X94.883 Y33.15 E72.89772
G1 X95.63 Y33.19 E72.98748
G1 X96.368 Y33.309 E73.07719
G1 X97.09 Y33.507 E73.16703
G1 X97.786 Y33.78 E73.25674
G1 X98.449 Y34.127 E73.34654
G1 X99.072 Y34.542 E73.43637
G1 X99.833 Y35.2 E73.55709
G1 X99.95 Y35.317 E73.57695
G1 X100.45 Y35.874 E73.66677
G1 X100.887 Y36.48 E73.75642
G1 X101.258 Y37.13 E73.84623
G1 X101.557 Y37.816 E73.93603
G1 X101.781 Y38.53 E74.02583
G1 X101.928 Y39.263 E74.11554
G1 X102 Y40.267 E74.23633
G1 X102 Y79.733 E78.97225
G1 X101.96 Y80.48 E79.06202
G1 X101.841 Y81.218 E79.15172
G1 X101.643 Y81.94 E79.24156
G1 X101.37 Y82.636 E79.33128
G1 X101.023 Y83.299 E79.42107
G1 X100.608 Y83.922 E79.5109
G1 X99.95 Y84.683 E79.63163
G1 X99.833 Y84.8 E79.65148
G1 X99.276 Y85.3 E79.7413
G1 X98.67 Y85.737 E79.83096
G1 X98.02 Y86.108 E79.92077
G1 X97.334 Y86.407 E80.01057
G1 X96.62 Y86.631 E80.10037
G1 X95.887 Y86.778 E80.19008
G1 X94.883 Y86.85 E80.31087
G1 X25.117 Y86.85 E88.68279
G1 X24.37 Y86.81 E88.77255
G1 X23.632 Y86.691 E88.86226
G1 X22.91 Y86.493 E88.9521
G1 X22.214 Y86.22 E89.04181
G1 X21.551 Y85.873 E89.13161
G1 X20.928 Y85.458 E89.22144
G1 X20.167 Y84.8 E89.34216
G1 X20.05 Y84.683 E89.36202
G1 X19.55 Y84.126 E89.45184
G1 X19.113 Y83.52 E89.54149
G1 X18.742 Y82.87 E89.6313
G1 X18.443 Y82.184 E89.7211
G1 X18.219 Y81.47 E89.8109
G1 X18.072 Y80.737 E89.90061
G1 X18 Y79.733 E90.0214
G1 X18 Y40.267 E94.75732
G1 X18.04 Y39.52 E94.84709
G1 X18.159 Y38.782 E94.93679
G1 X18.357 Y38.06 E95.02663
G1 X18.63 Y37.364 E95.11635
G1 X18.977 Y36.701 E95.20615
G1 X19.392 Y36.078 E95.29597
G1 X20.05 Y35.317 E95.4167
G1 X20.167 Y35.2 E95.43655
G1 X20.724 Y34.7 E95.52637
G1 X21.33 Y34.263 E95.61603
G0 F3600 X21.582 Y34.576
G1 F1800 X22.216 Y34.222 E95.70316
G1 X22.885 Y33.939 E95.79033
G1 X23.581 Y33.731 E95.8775
G1 X24.296 Y33.601 E95.96471
G1 X25.117 Y33.55 E96.06342
G1 X94.883 Y33.55 E104.43534
G1 X95.608 Y33.59 E104.52247
G1 X96.325 Y33.709 E104.60969
G1 X97.024 Y33.907 E104.69687
G1 X97.697 Y34.18 E104.78402
G1 X98.336 Y34.525 E104.87116
G1 X98.933 Y34.939 E104.95834
G1 X99.55 Y35.483 E105.05705
G1 X99.667 Y35.6 E105.07691
G1 X100.151 Y36.141 E105.16401
G1 X100.574 Y36.732 E105.25123
G1 X100.928 Y37.366 E105.33836
G1 X101.211 Y38.035 E105.42553
G1 X101.419 Y38.731 E105.5127
G1 X101.549 Y39.446 E105.59991
G1 X101.6 Y40.267 E105.69862
G1 X101.6 Y79.733 E110.43454
G1 X101.56 Y80.458 E110.52167
G1 X101.441 Y81.175 E110.60889
G1 X101.243 Y81.874 E110.69607
G1 X100.97 Y82.547 E110.78322
G1 X100.625 Y83.186 E110.87036
G1 X100.211 Y83.783 E110.95754
G1 X99.667 Y84.4 E111.05625
G1 X99.55 Y84.517 E111.07611
G1 X99.009 Y85.001 E111.16321
G1 X98.418 Y85.424 E111.25043
G1 X97.784 Y85.778 E111.33756
G1 X97.115 Y86.061 E111.42473
G1 X96.419 Y86.269 E111.5119
G1 X95.704 Y86.399 E111.59911
G1 X94.883 Y86.45 E111.69782
G1 X25.117 Y86.45 E120.06974
G1 X24.392 Y86.41 E120.15687
G1 X23.675 Y86.291 E120.24409
G1 X22.976 Y86.093 E120.33127
G1 X22.303 Y85.82 E120.41842
G1 X21.664 Y85.475 E120.50556
G1 X21.067 Y85.061 E120.59274
G1 X20.45 Y84.517 E120.69145
G1 X20.333 Y84.4 E120.71131
G1 X19.849 Y83.859 E120.79841
G1 X19.426 Y83.268 E120.88563
G1 X19.072 Y82.634 E120.97276
G1 X18.789 Y81.965 E121.05993
G1 X18.581 Y81.269 E121.1471
G1 X18.451 Y80.554 E121.23431
G1 X18.4 Y79.733 E121.33302
G1 X18.4 Y40.267 E126.06894
G1 X18.44 Y39.542 E126.15607
G1 X18.559 Y38.825 E126.24329
G1 X18.757 Y38.126 E126.33047
G1 X19.03 Y37.453 E126.41762
G1 X19.375 Y36.814 E126.50476
G1 X19.789 Y36.217 E126.59194
G1 X20.333 Y35.6 E126.69065
G1 X20.45 Y35.483 E126.71051
G1 X20.991 Y34.999 E126.79761
G1 X21.582 Y34.576 E126.88483
G0 F3600 X21.833 Y34.891
G1 F1800 X22.451 Y34.553 E126.96936
G1 X23.102 Y34.286 E127.05379
G1 X23.78 Y34.096 E127.13828
G1 X24.475 Y33.983 E127.22278
G1 X25.117 Y33.95 E127.29992
G1 X94.883 Y33.95 E135.67184
G1 X95.586 Y33.99 E135.75634
G1 X96.28 Y34.109 E135.84083
G1 X96.955 Y34.307 E135.92525
G1 X97.604 Y34.579 E136.00969
G1 X98.218 Y34.924 E136.0942
G1 X98.789 Y35.335 E136.17863
G1 X99.267 Y35.766 E136.25586
G1 X99.384 Y35.883 E136.27572
G1 X99.853 Y36.408 E136.3602
G1 X100.259 Y36.983 E136.44466
G1 X100.597 Y37.601 E136.52919
G1 X100.864 Y38.252 E136.61362
G1 X101.054 Y38.93 E136.69812
G1 X101.167 Y39.625 E136.78261
G1 X101.2 Y40.267 E136.85976
G1 X101.2 Y79.733 E141.59568
G1 X101.16 Y80.436 E141.68017
G1 X101.041 Y81.13 E141.76467
G1 X100.843 Y81.805 E141.84908
G1 X100.571 Y82.454 E141.93352
G1 X100.226 Y83.068 E142.01804
G1 X99.815 Y83.639 E142.10246
G1 X99.384 Y84.117 E142.1797
G1 X99.267 Y84.234 E142.19955
G1 X98.742 Y84.703 E142.28403
G1 X98.167 Y85.109 E142.3685
G1 X97.549 Y85.447 E142.45302
G1 X96.898 Y85.714 E142.53746
G1 X96.22 Y85.904 E142.62195
G1 X95.525 Y86.017 E142.70645
G1 X94.883 Y86.05 E142.78359
G1 X25.117 Y86.05 E151.15551
G1 X24.414 Y86.01 E151.24001
G1 X23.72 Y85.891 E151.3245
G1 X23.045 Y85.693 E151.40891
G1 X22.396 Y85.421 E151.49336
G1 X21.782 Y85.076 E151.57787
G1 X21.211 Y84.665 E151.6623
G1 X20.733 Y84.234 E151.73953
G1 X20.616 Y84.117 E151.75939
G1 X20.147 Y83.592 E151.84386
G1 X19.741 Y83.017 E151.92833
G1 X19.403 Y82.399 E152.01286
G1 X19.136 Y81.748 E152.09729
G1 X18.946 Y81.07 E152.18179
G1 X18.833 Y80.375 E152.26628
G1 X18.8 Y79.733 E152.34342
G1 X18.8 Y40.267 E157.07934
G1 X18.84 Y39.564 E157.16384
G1 X18.959 Y38.87 E157.24834
G1 X19.157 Y38.195 E157.33275
G1 X19.429 Y37.546 E157.41719
G1 X19.774 Y36.932 E157.50171
G1 X20.185 Y36.361 E157.58613
G1 X20.616 Y35.883 E157.66337
G1 X20.733 Y35.766 E157.68322
G1 X21.258 Y35.297 E157.7677
G1 X21.833 Y34.891 E157.85217
G0 F3600 X22.083 Y35.207
G1 F1800 X22.683 Y34.885 E157.93388
G1 X23.317 Y34.636 E158.01562
G1 X23.976 Y34.463 E158.09738
G1 X24.65 Y34.369 E158.17904
G1 X25.117 Y34.35 E158.23512
G1 X94.883 Y34.35 E166.60704
G1 X95.563 Y34.39 E166.68879
G1 X96.233 Y34.509 E166.77044
G1 X96.885 Y34.706 E166.85218
G1 X97.509 Y34.978 E166.93386
G1 X98.097 Y35.322 E167.01561
G1 X98.641 Y35.732 E167.09735
G1 X99.101 Y36.166 E167.17324
G1 X99.554 Y36.675 E167.25501
G1 X99.943 Y37.233 E167.33664
G1 X100.265 Y37.833 E167.41835
G1 X100.514 Y38.467 E167.50009
G1 X100.687 Y39.126 E167.58185
G1 X100.781 Y39.8 E167.66351
G1 X100.8 Y40.267 E167.7196
G1 X100.8 Y79.733 E172.45552
G1 X100.76 Y80.413 E172.53726
G1 X100.641 Y81.083 E172.61891
G1 X100.444 Y81.735 E172.70065
G1 X100.172 Y82.359 E172.78233
G1 X99.828 Y82.947 E172.86408
G1 X99.418 Y83.491 E172.94583
G1 X98.984 Y83.951 E173.02172
G1 X98.475 Y84.404 E173.10348
G1 X97.917 Y84.793 E173.18511
G1 X97.317 Y85.115 E173.26682
G1 X96.683 Y85.364 E173.34856
G1 X96.024 Y85.537 E173.43032
G1 X95.35 Y85.631 E173.51198
G1 X94.883 Y85.65 E173.56807
G1 X25.117 Y85.65 E181.93999
G1 X24.437 Y85.61 E182.02173
G1 X23.767 Y85.491 E182.10339
G1 X23.115 Y85.294 E182.18512
G1 X22.491 Y85.022 E182.2668
G1 X21.903 Y84.678 E182.34855
G1 X21.359 Y84.268 E182.4303
G1 X20.899 Y83.834 E182.50619
G1 X20.446 Y83.325 E182.58795
G1 X20.057 Y82.767 E182.66958
G1 X19.735 Y82.167 E182.75129
G1 X19.486 Y81.533 E182.83303
G1 X19.313 Y80.874 E182.91479
G1 X19.219 Y80.2 E182.99645
G1 X19.2 Y79.733 E183.05254
G1 X19.2 Y40.267 E187.78846
G1 X19.24 Y39.587 E187.8702
G1 X19.359 Y38.917 E187.95186
G1 X19.556 Y38.265 E188.03359
G1 X19.828 Y37.641 E188.11528
G1 X20.172 Y37.053 E188.19702
G1 X20.582 Y36.509 E188.27877
G1 X21.016 Y36.049 E188.35466
G1 X21.525 Y35.596 E188.43642
G1 X22.083 Y35.207 E188.51805
G0 F3600 X22.332 Y35.524
G1 F1800 X22.914 Y35.22 E188.59684
G1 X23.529 Y34.989 E188.67568
G1 X24.168 Y34.834 E188.75458
G1 X25.117 Y34.75 E188.86891
G1 X94.883 Y34.75 E197.24083
G1 X95.539 Y34.79 E197.31969
G1 X96.185 Y34.909 E197.39852
G1 X96.812 Y35.106 E197.47738
G1 X97.41 Y35.378 E197.55622
G1 X97.971 Y35.72 E197.63506
G1 X98.701 Y36.332 E197.74937
G1 X98.818 Y36.449 E197.76923
G1 X99.254 Y36.941 E197.84811
G1 X99.626 Y37.482 E197.9269
G1 X99.93 Y38.064 E198.0057
G1 X100.161 Y38.679 E198.08453
G1 X100.316 Y39.318 E198.16343
G1 X100.4 Y40.267 E198.27776
G1 X100.4 Y79.733 E203.01368
G1 X100.36 Y80.389 E203.09254
G1 X100.241 Y81.035 E203.17137
G1 X100.044 Y81.662 E203.25024
G1 X99.772 Y82.26 E203.32907
G1 X99.43 Y82.821 E203.40791
G1 X98.818 Y83.551 E203.52222
G1 X98.701 Y83.668 E203.54208
G1 X98.209 Y84.104 E203.62097
G1 X97.668 Y84.476 E203.69975
G1 X97.086 Y84.78 E203.77855
G1 X96.471 Y85.011 E203.85738
G1 X95.832 Y85.166 E203.93628
G1 X94.883 Y85.25 E204.05061
G1 X25.117 Y85.25 E212.42253
G1 X24.461 Y85.21 E212.5014
G1 X23.815 Y85.091 E212.58022
G1 X23.188 Y84.894 E212.65909
G1 X22.59 Y84.622 E212.73792
G1 X22.029 Y84.28 E212.81676
G1 X21.299 Y83.668 E212.93108
G1 X21.182 Y83.551 E212.95093
G1 X20.746 Y83.059 E213.02982
G1 X20.374 Y82.518 E213.10861
G1 X20.07 Y81.936 E213.1874
G1 X19.839 Y81.321 E213.26623
G1 X19.684 Y80.682 E213.34514
G1 X19.6 Y79.733 E213.45946
G1 X19.6 Y40.267 E218.19538
G1 X19.64 Y39.611 E218.27425
G1 X19.759 Y38.965 E218.35307
G1 X19.956 Y38.338 E218.43194
G1 X20.228 Y37.74 E218.51077
G1 X20.57 Y37.179 E218.58962
G1 X21.182 Y36.449 E218.70393
G1 X21.299 Y36.332 E218.72378
G1 X21.791 Y35.896 E218.80267
G1 X22.332 Y35.524 E218.88146
G0 F3600 X22.579 Y35.842
G1 F1800 X23.143 Y35.556 E218.95734
G1 X23.738 Y35.344 E219.03314
G1 X24.356 Y35.208 E219.10907
G1 X25.117 Y35.15 E219.20066
G1 X94.883 Y35.15 E227.57258
G1 X95.514 Y35.19 E227.64845
G1 X96.135 Y35.309 E227.72433
G1 X96.735 Y35.506 E227.80011
G1 X97.307 Y35.777 E227.87606
G1 X97.839 Y36.117 E227.95183
G1 X98.419 Y36.614 E228.04348
G1 X98.536 Y36.731 E228.06334
G1 X98.953 Y37.206 E228.13919
G1 X99.308 Y37.729 E228.21504
G1 X99.594 Y38.293 E228.29092
G1 X99.806 Y38.888 E228.36672
G1 X99.942 Y39.506 E228.44265
G1 X100 Y40.267 E228.53424
G1 X100 Y79.733 E233.27016
G1 X99.96 Y80.364 E233.34603
G1 X99.841 Y80.985 E233.42191
G1 X99.644 Y81.585 E233.49769
G1 X99.373 Y82.157 E233.57364
G1 X99.033 Y82.689 E233.64941
G1 X98.536 Y83.269 E233.74106
G1 X98.419 Y83.386 E233.76092
G1 X97.944 Y83.803 E233.83677
G1 X97.421 Y84.158 E233.91262
G1 X96.857 Y84.444 E233.98851
G1 X96.262 Y84.656 E234.0643
G1 X95.644 Y84.792 E234.14024
G1 X94.883 Y84.85 E234.23182
G1 X25.117 Y84.85 E242.60374
G1 X24.486 Y84.81 E242.67961
G1 X23.865 Y84.691 E242.75549
G1 X23.265 Y84.494 E242.83127
G1 X22.693 Y84.223 E242.90722
G1 X22.161 Y83.883 E242.98299
G1 X21.581 Y83.386 E243.07465
G1 X21.464 Y83.269 E243.0945
G1 X21.047 Y82.794 E243.17035
G1 X20.692 Y82.271 E243.2462
G1 X20.406 Y81.707 E243.32209
G1 X20.194 Y81.112 E243.39788
G1 X20.058 Y80.494 E243.47382
G1 X20 Y79.733 E243.5654
G1 X20 Y40.267 E248.30132
G1 X20.04 Y39.636 E248.3772
G1 X20.159 Y39.015 E248.45307
G1 X20.356 Y38.415 E248.52885
G1 X20.627 Y37.843 E248.60481
G1 X20.967 Y37.311 E248.68057
G1 X21.464 Y36.731 E248.77223
G1 X21.581 Y36.614 E248.79208
G1 X22.056 Y36.197 E248.86793
G1 X22.579 Y35.842 E248.94378
G0 F3600 X22.825 Y36.162
G1 F1800 X23.369 Y35.895 E249.0165
G1 X23.944 Y35.702 E249.08929
G1 X24.539 Y35.586 E249.16203
G1 X25.117 Y35.55 E249.23153
G1 X94.883 Y35.55 E257.60345
G1 X95.488 Y35.59 E257.6762
G1 X96.082 Y35.709 E257.7489
G1 X96.656 Y35.905 E257.82169
G1 X97.199 Y36.176 E257.89451
G1 X97.702 Y36.515 E257.9673
G1 X98.136 Y36.897 E258.03668
G1 X98.253 Y37.014 E258.05653
G1 X98.652 Y37.47 E258.12924
G1 X98.988 Y37.975 E258.20203
G1 X99.255 Y38.519 E258.27475
G1 X99.448 Y39.094 E258.34753
G1 X99.564 Y39.689 E258.42028
G1 X99.6 Y40.267 E258.48977
G1 X99.6 Y79.733 E263.22569
G1 X99.56 Y80.338 E263.29845
G1 X99.441 Y80.932 E263.37115
G1 X99.245 Y81.506 E263.44393
G1 X98.974 Y82.049 E263.51676
