;FLAVOR:UltiGCode
;TIME:1568
;MATERIAL:2962
;MATERIAL2:0
;NOZZLE_DIAMETER:0.4
;MINX:16.247
;MINY:28.192
;MINZ:0.3
;MAXX:90.847
;MAXY:53.692
;MAXZ:8.4
;Generated with Cura_SteamEngine 4.9.1
M82 ;absolute extrusion mode
G0 F3000 Y50 ;avoid prime blob
G92 E0
G92 E0
G10
;LAYER_COUNT:55
;LAYER:0
M107
G0 F3600 X19.871 Y29.48 Z0.3
;TYPE:SKIRT
G11
G1 F1800 X20.551 Y29.079 E0.09473
G1 X21.269 Y28.749 E0.18956
G1 X22.016 Y28.494 E0.28428
G1 X22.785 Y28.315 E0.37902
G1 X23.569 Y28.215 E0.47386
G1 X24.164 Y28.192 E0.54532
G1 X82.93 Y28.192 E7.59724
G1 X83.719 Y28.232 E7.69204
G1 X84.499 Y28.351 E7.78672
G1 X85.264 Y28.549 E7.88155
G1 X86.004 Y28.823 E7.97624
G1 X86.713 Y29.171 E8.07102
G1 X87.384 Y29.589 E8.16588
G1 X88.008 Y30.072 E8.26057
G1 X88.445 Y30.477 E8.33207
G1 X88.562 Y30.594 E8.35193
G1 X89.092 Y31.18 E8.44674
G1 X89.559 Y31.816 E8.54142
G1 X89.96 Y32.496 E8.63616
G1 X90.29 Y33.214 E8.73098
G1 X90.545 Y33.961 E8.8257
G1 X90.724 Y34.73 E8.92045
G1 X90.824 Y35.514 E9.01529
G1 X90.847 Y36.109 E9.08674
G1 X90.847 Y45.775 E10.24666
G1 X90.807 Y46.564 E10.34146
G1 X90.688 Y47.344 E10.43615
G1 X90.49 Y48.109 E10.53097
G1 X90.216 Y48.849 E10.62566
G1 X89.868 Y49.558 E10.72044
G1 X89.45 Y50.229 E10.81531
G1 X88.967 Y50.853 E10.91
G1 X88.562 Y51.29 E10.98149
G1 X88.445 Y51.407 E11.00135
G1 X87.859 Y51.937 E11.09616
G1 X87.223 Y52.404 E11.19085
G1 X86.543 Y52.805 E11.28558
G1 X85.825 Y53.135 E11.38041
G1 X85.078 Y53.39 E11.47513
G1 X84.309 Y53.569 E11.56987
G1 X83.525 Y53.669 E11.66471
G1 X82.93 Y53.692 E11.73617
G1 X24.164 Y53.692 E18.78809
G1 X23.375 Y53.652 E18.88289
G1 X22.595 Y53.533 E18.97757
G1 X21.83 Y53.335 E19.0724
G1 X21.09 Y53.061 E19.16709
G1 X20.381 Y52.713 E19.26187
G1 X19.71 Y52.295 E19.35673
G1 X19.086 Y51.812 E19.45142
G1 X18.649 Y51.407 E19.52292
G1 X18.532 Y51.29 E19.54277
G1 X18.002 Y50.704 E19.63759
G1 X17.535 Y50.068 E19.73227
G1 X17.134 Y49.388 E19.82701
G1 X16.804 Y48.67 E19.92183
G1 X16.549 Y47.923 E20.01655
G1 X16.37 Y47.154 E20.1113
G1 X16.27 Y46.37 E20.20614
G1 X16.247 Y45.775 E20.27759
G1 X16.247 Y36.109 E21.43751
G1 X16.287 Y35.32 E21.53231
G1 X16.406 Y34.54 E21.627
G1 X16.604 Y33.775 E21.72182
G1 X16.878 Y33.035 E21.81651
G1 X17.226 Y32.326 E21.91129
G1 X17.644 Y31.655 E22.00616
G1 X18.127 Y31.031 E22.10085
G1 X18.532 Y30.594 E22.17234
G1 X18.649 Y30.477 E22.1922
G1 X19.235 Y29.947 E22.28701
G1 X19.871 Y29.48 E22.3817
G0 F3600 X20.125 Y29.792
G1 F1800 X20.79 Y29.406 E22.47397
G1 X21.492 Y29.091 E22.5663
G1 X22.223 Y28.851 E22.65863
G1 X22.974 Y28.688 E22.75085
G1 X23.739 Y28.604 E22.8432
G1 X24.164 Y28.592 E22.89422
G1 X82.93 Y28.592 E29.94614
G1 X83.698 Y28.632 E30.03842
G1 X84.458 Y28.751 E30.13073
G1 X85.201 Y28.949 E30.22301
G1 X85.92 Y29.223 E30.31534
G1 X86.606 Y29.57 E30.40759
G1 X87.253 Y29.986 E30.49989
G1 X87.853 Y30.467 E30.59217
G1 X88.28 Y30.876 E30.66313
G1 X88.794 Y31.448 E30.75541
G1 X89.247 Y32.07 E30.84775
G1 X89.633 Y32.735 E30.94002
G1 X89.948 Y33.437 E31.03235
G1 X90.188 Y34.168 E31.12467
G1 X90.351 Y34.919 E31.21689
G1 X90.435 Y35.684 E31.30924
G1 X90.447 Y36.109 E31.36026
G1 X90.447 Y45.775 E32.52018
G1 X90.407 Y46.543 E32.61247
G1 X90.288 Y47.303 E32.70478
G1 X90.09 Y48.046 E32.79705
G1 X89.816 Y48.765 E32.88938
G1 X89.469 Y49.451 E32.98164
G1 X89.053 Y50.098 E33.07394
G1 X88.572 Y50.698 E33.16622
G1 X88.163 Y51.125 E33.23717
G1 X87.591 Y51.639 E33.32946
G1 X86.969 Y52.092 E33.42179
G1 X86.304 Y52.478 E33.51406
G1 X85.602 Y52.793 E33.60639
G1 X84.871 Y53.033 E33.69872
G1 X84.12 Y53.196 E33.79094
G1 X83.355 Y53.28 E33.88329
G1 X82.93 Y53.292 E33.93431
G1 X24.164 Y53.292 E40.98623
G1 X23.396 Y53.252 E41.07852
G1 X22.636 Y53.133 E41.17083
G1 X21.893 Y52.935 E41.2631
G1 X21.174 Y52.661 E41.35543
G1 X20.488 Y52.314 E41.44768
G1 X19.841 Y51.898 E41.53999
G1 X19.241 Y51.417 E41.63227
G1 X18.814 Y51.008 E41.70322
G1 X18.3 Y50.436 E41.7955
G1 X17.847 Y49.814 E41.88784
G1 X17.461 Y49.149 E41.98011
G1 X17.146 Y48.447 E42.07244
G1 X16.906 Y47.716 E42.16477
G1 X16.743 Y46.965 E42.25699
G1 X16.659 Y46.2 E42.34934
G1 X16.647 Y45.775 E42.40036
G1 X16.647 Y36.109 E43.56028
G1 X16.687 Y35.341 E43.65256
G1 X16.806 Y34.581 E43.74487
G1 X17.004 Y33.838 E43.83715
G1 X17.278 Y33.119 E43.92948
G1 X17.625 Y32.433 E44.02173
G1 X18.041 Y31.786 E44.11403
G1 X18.522 Y31.186 E44.20631
G1 X18.931 Y30.759 E44.27727
G1 X19.503 Y30.245 E44.36955
G1 X20.125 Y29.792 E44.46189
G0 F3600 X20.377 Y30.105
G1 F1800 X21.027 Y29.734 E44.5517
G1 X21.713 Y29.435 E44.6415
G1 X22.427 Y29.211 E44.73129
G1 X23.16 Y29.064 E44.82101
G1 X24.164 Y28.992 E44.9418
G1 X82.93 Y28.992 E51.99372
G1 X83.677 Y29.032 E52.08348
G1 X84.415 Y29.151 E52.17319
G1 X85.137 Y29.349 E52.26303
G1 X85.833 Y29.622 E52.35274
G1 X86.496 Y29.969 E52.44254
G1 X87.119 Y30.384 E52.53237
G1 X87.88 Y31.042 E52.65309
G1 X87.997 Y31.159 E52.67295
G1 X88.497 Y31.716 E52.76277
G1 X88.934 Y32.322 E52.85242
G1 X89.305 Y32.972 E52.94223
G1 X89.604 Y33.658 E53.03203
G1 X89.828 Y34.372 E53.12183
G1 X89.975 Y35.105 E53.21154
G1 X90.047 Y36.109 E53.33233
G1 X90.047 Y45.775 E54.49225
G1 X90.007 Y46.522 E54.58202
G1 X89.888 Y47.26 E54.67172
G1 X89.69 Y47.982 E54.76156
G1 X89.417 Y48.678 E54.85128
G1 X89.07 Y49.341 E54.94107
G1 X88.655 Y49.964 E55.0309
G1 X87.997 Y50.725 E55.15163
G1 X87.88 Y50.842 E55.17148
G1 X87.323 Y51.342 E55.2613
G1 X86.717 Y51.779 E55.35096
G1 X86.067 Y52.15 E55.44077
G1 X85.381 Y52.449 E55.53057
G1 X84.667 Y52.673 E55.62037
G1 X83.934 Y52.82 E55.71008
G1 X82.93 Y52.892 E55.83087
G1 X24.164 Y52.892 E62.88279
G1 X23.417 Y52.852 E62.97255
G1 X22.679 Y52.733 E63.06226
G1 X21.957 Y52.535 E63.1521
G1 X21.261 Y52.262 E63.24181
G1 X20.598 Y51.915 E63.33161
G1 X19.975 Y51.5 E63.42144
G1 X19.214 Y50.842 E63.54216
G1 X19.097 Y50.725 E63.56202
G1 X18.597 Y50.168 E63.65184
G1 X18.16 Y49.562 E63.74149
G1 X17.789 Y48.912 E63.8313
G1 X17.49 Y48.226 E63.9211
G1 X17.266 Y47.512 E64.0109
G1 X17.119 Y46.779 E64.10061
G1 X17.047 Y45.775 E64.2214
G1 X17.047 Y36.109 E65.38132
G1 X17.087 Y35.362 E65.47109
G1 X17.206 Y34.624 E65.56079
G1 X17.404 Y33.902 E65.65063
G1 X17.677 Y33.206 E65.74035
G1 X18.024 Y32.543 E65.83015
G1 X18.439 Y31.92 E65.91997
G1 X19.097 Y31.159 E66.0407
G1 X19.214 Y31.042 E66.06055
G1 X19.771 Y30.542 E66.15037
G1 X20.377 Y30.105 E66.24003
G0 F3600 X20.629 Y30.418
G1 F1800 X21.263 Y30.064 E66.32716
G1 X21.932 Y29.781 E66.41433
G1 X22.628 Y29.573 E66.5015
G1 X23.343 Y29.443 E66.58871
G1 X24.164 Y29.392 E66.68742
G1 X82.93 Y29.392 E73.73934
G1 X83.655 Y29.432 E73.82647
G1 X84.372 Y29.551 E73.91369
G1 X85.071 Y29.749 E74.00087
G1 X85.744 Y30.022 E74.08802
G1 X86.383 Y30.367 E74.17516
G1 X86.98 Y30.781 E74.26234
G1 X87.597 Y31.325 E74.36105
G1 X87.714 Y31.442 E74.38091
G1 X88.198 Y31.983 E74.46801
G1 X88.621 Y32.574 E74.55523
G1 X88.975 Y33.208 E74.64236
G1 X89.258 Y33.877 E74.72953
G1 X89.466 Y34.573 E74.8167
G1 X89.596 Y35.288 E74.90391
G1 X89.647 Y36.109 E75.00262
G1 X89.647 Y45.775 E76.16254
G1 X89.607 Y46.5 E76.24967
G1 X89.488 Y47.217 E76.33689
G1 X89.29 Y47.916 E76.42407
G1 X89.017 Y48.589 E76.51122
G1 X88.672 Y49.228 E76.59836
G1 X88.258 Y49.825 E76.68554
G1 X87.714 Y50.442 E76.78425
G1 X87.597 Y50.559 E76.80411
G1 X87.056 Y51.043 E76.89121
G1 X86.465 Y51.466 E76.97843
G1 X85.831 Y51.82 E77.06556
G1 X85.162 Y52.103 E77.15273
G1 X84.466 Y52.311 E77.2399
G1 X83.751 Y52.441 E77.32711
G1 X82.93 Y52.492 E77.42582
G1 X24.164 Y52.492 E84.47774
G1 X23.439 Y52.452 E84.56487
G1 X22.722 Y52.333 E84.65209
G1 X22.023 Y52.135 E84.73927
G1 X21.35 Y51.862 E84.82642
G1 X20.711 Y51.517 E84.91356
G1 X20.114 Y51.103 E85.00074
G1 X19.497 Y50.559 E85.09945
G1 X19.38 Y50.442 E85.11931
G1 X18.896 Y49.901 E85.20641
G1 X18.473 Y49.31 E85.29363
G1 X18.119 Y48.676 E85.38076
G1 X17.836 Y48.007 E85.46793
G1 X17.628 Y47.311 E85.5551
G1 X17.498 Y46.596 E85.64231
G1 X17.447 Y45.775 E85.74102
G1 X17.447 Y36.109 E86.90094
G1 X17.487 Y35.384 E86.98807
G1 X17.606 Y34.667 E87.07529
G1 X17.804 Y33.968 E87.16247
G1 X18.077 Y33.295 E87.24962
G1 X18.422 Y32.656 E87.33676
G1 X18.836 Y32.059 E87.42394
G1 X19.38 Y31.442 E87.52265
G1 X19.497 Y31.325 E87.54251
G1 X20.038 Y30.841 E87.62961
G1 X20.629 Y30.418 E87.71683
G0 F3600 X20.88 Y30.733
G1 F1800 X21.498 Y30.395 E87.80136
G1 X22.149 Y30.128 E87.88579
G1 X22.827 Y29.938 E87.97028
G1 X23.522 Y29.825 E88.05478
G1 X24.164 Y29.792 E88.13192
G1 X82.93 Y29.792 E95.18384
G1 X83.633 Y29.832 E95.26834
G1 X84.327 Y29.951 E95.35283
G1 X85.002 Y30.149 E95.43725
G1 X85.651 Y30.421 E95.52169
G1 X86.265 Y30.766 E95.6062
G1 X86.836 Y31.177 E95.69063
G1 X87.314 Y31.608 E95.76786
G1 X87.431 Y31.725 E95.78772
G1 X87.9 Y32.25 E95.8722
G1 X88.306 Y32.825 E95.95666
G1 X88.644 Y33.443 E96.04119
G1 X88.911 Y34.094 E96.12562
G1 X89.101 Y34.772 E96.21012
G1 X89.214 Y35.467 E96.29461
G1 X89.247 Y36.109 E96.37176
G1 X89.247 Y45.775 E97.53168
G1 X89.207 Y46.478 E97.61617
G1 X89.088 Y47.172 E97.70067
G1 X88.89 Y47.847 E97.78508
G1 X88.618 Y48.496 E97.86952
G1 X88.273 Y49.11 E97.95404
G1 X87.862 Y49.681 E98.03846
G1 X87.431 Y50.159 E98.1157
G1 X87.314 Y50.276 E98.13555
G1 X86.789 Y50.745 E98.22003
G1 X86.214 Y51.151 E98.3045
G1 X85.596 Y51.489 E98.38902
G1 X84.945 Y51.756 E98.47346
G1 X84.267 Y51.946 E98.55795
G1 X83.572 Y52.059 E98.64245
G1 X82.93 Y52.092 E98.71959
G1 X24.164 Y52.092 E105.77151
G1 X23.461 Y52.052 E105.85601
G1 X22.767 Y51.933 E105.9405
G1 X22.092 Y51.735 E106.02491
G1 X21.443 Y51.463 E106.10936
G1 X20.829 Y51.118 E106.19387
G1 X20.258 Y50.707 E106.2783
G1 X19.78 Y50.276 E106.35553
G1 X19.663 Y50.159 E106.37539
G1 X19.194 Y49.634 E106.45986
G1 X18.788 Y49.059 E106.54433
G1 X18.45 Y48.441 E106.62886
G1 X18.183 Y47.79 E106.71329
G1 X17.993 Y47.112 E106.79779
G1 X17.88 Y46.417 E106.88228
G1 X17.847 Y45.775 E106.95942
G1 X17.847 Y36.109 E108.11934
G1 X17.887 Y35.406 E108.20384
G1 X18.006 Y34.712 E108.28834
G1 X18.204 Y34.037 E108.37275
G1 X18.476 Y33.388 E108.45719
G1 X18.821 Y32.774 E108.54171
G1 X19.232 Y32.203 E108.62613
G1 X19.663 Y31.725 E108.70337
G1 X19.78 Y31.608 E108.72322
G1 X20.305 Y31.139 E108.8077
G1 X20.88 Y30.733 E108.89217
G0 F3600 X21.13 Y31.049
G1 F1800 X21.73 Y30.727 E108.97388
G1 X22.364 Y30.478 E109.05562
G1 X23.023 Y30.305 E109.13738
G1 X23.697 Y30.211 E109.21904
G1 X24.164 Y30.192 E109.27512
G1 X82.93 Y30.192 E116.32704
G1 X83.61 Y30.232 E116.40879
G1 X84.28 Y30.351 E116.49044
G1 X84.932 Y30.548 E116.57218
G1 X85.556 Y30.82 E116.65386
G1 X86.144 Y31.164 E116.73561
G1 X86.688 Y31.574 E116.81735
G1 X87.148 Y32.008 E116.89324
G1 X87.601 Y32.517 E116.97501
G1 X87.99 Y33.075 E117.05664
G1 X88.312 Y33.675 E117.13835
G1 X88.561 Y34.309 E117.22009
G1 X88.734 Y34.968 E117.30185
G1 X88.828 Y35.642 E117.38351
G1 X88.847 Y36.109 E117.4396
G1 X88.847 Y45.775 E118.59952
G1 X88.807 Y46.455 E118.68126
G1 X88.688 Y47.125 E118.76291
G1 X88.491 Y47.777 E118.84465
G1 X88.219 Y48.401 E118.92633
G1 X87.875 Y48.989 E119.00808
G1 X87.465 Y49.533 E119.08983
G1 X87.031 Y49.993 E119.16572
G1 X86.522 Y50.446 E119.24748
G1 X85.964 Y50.835 E119.32911
G1 X85.364 Y51.157 E119.41082
G1 X84.73 Y51.406 E119.49256
G1 X84.071 Y51.579 E119.57432
G1 X83.397 Y51.673 E119.65598
G1 X82.93 Y51.692 E119.71207
G1 X24.164 Y51.692 E126.76399
G1 X23.484 Y51.652 E126.84573
G1 X22.814 Y51.533 E126.92739
G1 X22.162 Y51.336 E127.00912
G1 X21.538 Y51.064 E127.0908
G1 X20.95 Y50.72 E127.17255
G1 X20.406 Y50.31 E127.2543
G1 X19.946 Y49.876 E127.33019
G1 X19.493 Y49.367 E127.41195
G1 X19.104 Y48.809 E127.49358
G1 X18.782 Y48.209 E127.57529
G1 X18.533 Y47.575 E127.65703
G1 X18.36 Y46.916 E127.73879
G1 X18.266 Y46.242 E127.82045
G1 X18.247 Y45.775 E127.87654
G1 X18.247 Y36.109 E129.03646
G1 X18.287 Y35.429 E129.1182
G1 X18.406 Y34.759 E129.19986
G1 X18.603 Y34.107 E129.28159
G1 X18.875 Y33.483 E129.36328
G1 X19.219 Y32.895 E129.44502
G1 X19.629 Y32.351 E129.52677
G1 X20.063 Y31.891 E129.60266
G1 X20.572 Y31.438 E129.68442
G1 X21.13 Y31.049 E129.76605
G0 F3600 X21.379 Y31.366
G1 F1800 X21.961 Y31.062 E129.84484
G1 X22.576 Y30.831 E129.92368
G1 X23.215 Y30.676 E130.00258
G1 X24.164 Y30.592 E130.11691
G1 X82.93 Y30.592 E137.16883
G1 X83.586 Y30.632 E137.24769
G1 X84.232 Y30.751 E137.32652
G1 X84.859 Y30.948 E137.40538
G1 X85.457 Y31.22 E137.48422
G1 X86.018 Y31.562 E137.56306
G1 X86.748 Y32.174 E137.67737
G1 X86.865 Y32.291 E137.69723
G1 X87.301 Y32.783 E137.77611
G1 X87.673 Y33.324 E137.8549
G1 X87.977 Y33.906 E137.9337
G1 X88.208 Y34.521 E138.01253
G1 X88.363 Y35.16 E138.09143
G1 X88.447 Y36.109 E138.20576
G1 X88.447 Y45.775 E139.36568
G1 X88.407 Y46.431 E139.44454
G1 X88.288 Y47.077 E139.52337
G1 X88.091 Y47.704 E139.60224
G1 X87.819 Y48.302 E139.68107
G1 X87.477 Y48.863 E139.75991
G1 X86.865 Y49.593 E139.87422
G1 X86.748 Y49.71 E139.89408
G1 X86.256 Y50.146 E139.97297
G1 X85.715 Y50.518 E140.05175
G1 X85.133 Y50.822 E140.13055
G1 X84.518 Y51.053 E140.20938
G1 X83.879 Y51.208 E140.28828
G1 X82.93 Y51.292 E140.40261
G1 X24.164 Y51.292 E147.45453
G1 X23.508 Y51.252 E147.5334
G1 X22.862 Y51.133 E147.61222
G1 X22.235 Y50.936 E147.69109
G1 X21.637 Y50.664 E147.76992
G1 X21.076 Y50.322 E147.84876
G1 X20.346 Y49.71 E147.96308
G1 X20.229 Y49.593 E147.98293
G1 X19.793 Y49.101 E148.06182
G1 X19.421 Y48.56 E148.14061
G1 X19.117 Y47.978 E148.2194
G1 X18.886 Y47.363 E148.29823
G1 X18.731 Y46.724 E148.37714
G1 X18.647 Y45.775 E148.49146
G1 X18.647 Y36.109 E149.65138
G1 X18.687 Y35.453 E149.73025
G1 X18.806 Y34.807 E149.80907
G1 X19.003 Y34.18 E149.88794
G1 X19.275 Y33.582 E149.96677
G1 X19.617 Y33.021 E150.04562
G1 X20.229 Y32.291 E150.15993
G1 X20.346 Y32.174 E150.17978
G1 X20.838 Y31.738 E150.25867
G1 X21.379 Y31.366 E150.33746
G0 F3600 X21.626 Y31.684
G1 F1800 X22.19 Y31.398 E150.41334
G1 X22.785 Y31.186 E150.48914
G1 X23.403 Y31.05 E150.56507
G1 X24.164 Y30.992 E150.65666
G1 X82.93 Y30.992 E157.70858
G1 X83.561 Y31.032 E157.78445
G1 X84.182 Y31.151 E157.86033
G1 X84.782 Y31.348 E157.93611
G1 X85.354 Y31.619 E158.01206
G1 X85.886 Y31.959 E158.08783
G1 X86.466 Y32.456 E158.17948
G1 X86.583 Y32.573 E158.19934
G1 X87 Y33.048 E158.27519
G1 X87.355 Y33.571 E158.35104
G1 X87.641 Y34.135 E158.42692
G1 X87.853 Y34.73 E158.50272
G1 X87.989 Y35.348 E158.57865
G1 X88.047 Y36.109 E158.67024
G1 X88.047 Y45.775 E159.83016
G1 X88.007 Y46.406 E159.90603
G1 X87.888 Y47.027 E159.98191
G1 X87.691 Y47.627 E160.05769
G1 X87.42 Y48.199 E160.13364
G1 X87.08 Y48.731 E160.20941
G1 X86.583 Y49.311 E160.30106
G1 X86.466 Y49.428 E160.32092
G1 X85.991 Y49.845 E160.39677
G1 X85.468 Y50.2 E160.47262
G1 X84.904 Y50.486 E160.54851
G1 X84.309 Y50.698 E160.6243
G1 X83.691 Y50.834 E160.70024
G1 X82.93 Y50.892 E160.79182
G1 X24.164 Y50.892 E167.84374
G1 X23.533 Y50.852 E167.91961
G1 X22.912 Y50.733 E167.99549
G1 X22.312 Y50.536 E168.07127
G1 X21.74 Y50.265 E168.14722
G1 X21.208 Y49.925 E168.22299
G1 X20.628 Y49.428 E168.31465
G1 X20.511 Y49.311 E168.3345
G1 X20.094 Y48.836 E168.41035
G1 X19.739 Y48.313 E168.4862
G1 X19.453 Y47.749 E168.56209
G1 X19.241 Y47.154 E168.63788
G1 X19.105 Y46.536 E168.71382
G1 X19.047 Y45.775 E168.8054
G1 X19.047 Y36.109 E169.96532
G1 X19.087 Y35.478 E170.0412
G1 X19.206 Y34.857 E170.11707
G1 X19.403 Y34.257 E170.19285
G1 X19.674 Y33.685 E170.26881
G1 X20.014 Y33.153 E170.34457
G1 X20.511 Y32.573 E170.43623
G1 X20.628 Y32.456 E170.45608
G1 X21.103 Y32.039 E170.53193
G1 X21.626 Y31.684 E170.60778
G0 F3600 X21.872 Y32.004
G1 F1800 X22.416 Y31.737 E170.6805
G1 X22.991 Y31.544 E170.75329
G1 X23.586 Y31.428 E170.82603
G1 X24.164 Y31.392 E170.89553
G1 X82.93 Y31.392 E177.94745
G1 X83.535 Y31.432 E178.0202
G1 X84.129 Y31.551 E178.0929
G1 X84.703 Y31.747 E178.16569
G1 X85.246 Y32.018 E178.23851
G1 X85.749 Y32.357 E178.3113
G1 X86.183 Y32.739 E178.38068
G1 X86.3 Y32.856 E178.40053
G1 X86.699 Y33.312 E178.47324
G1 X87.035 Y33.817 E178.54603
G1 X87.302 Y34.361 E178.61875
G1 X87.495 Y34.936 E178.69153
G1 X87.611 Y35.531 E178.76428
G1 X87.647 Y36.109 E178.83377
G1 X87.647 Y45.775 E179.99369
G1 X87.607 Y46.38 E180.06645
G1 X87.488 Y46.974 E180.13915
G1 X87.292 Y47.548 E180.21193
G1 X87.021 Y48.091 E180.28476
G1 X86.682 Y48.594 E180.35755
G1 X86.3 Y49.028 E180.42693
G1 X86.183 Y49.145 E180.44678
