;START_OF_HEADER
;HEADER_VERSION:0.1
;FLAVOR:Griffin
;GENERATOR.NAME:Cura_SteamEngine
;GENERATOR.VERSION:4.9.1
;GENERATOR.BUILD_DATE:2021-05-10
;TARGET_MACHINE.NAME:Ultimaker 3
;EXTRUDER_TRAIN.0.INITIAL_TEMPERATURE:205
;EXTRUDER_TRAIN.0.MATERIAL.VOLUME_USED:1259
;EXTRUDER_TRAIN.0.MATERIAL.GUID:506c9f0d-e3aa-4bd4-b2d2-23e2425b1aa9
;EXTRUDER_TRAIN.0.NOZZLE.DIAMETER:0.4
;EXTRUDER_TRAIN.0.NOZZLE.NAME:AA 0.4
;BUILD_PLATE.TYPE:glass
;BUILD_PLATE.INITIAL_TEMPERATURE:60
;PRINT.TIME:973
;PRINT.GROUPS:1
;PRINT.SIZE.MIN.X:9
;PRINT.SIZE.MIN.Y:6
;PRINT.SIZE.MIN.Z:0.27
;PRINT.SIZE.MAX.X:133.79
;PRINT.SIZE.MAX.Y:63.006
;PRINT.SIZE.MAX.Z:7.92
;END_OF_HEADER
;Generated with Cura_SteamEngine 4.9.1
T0
M82 ;absolute extrusion mode

G92 E0
M109 S205
G0 F15000 X9 Y6 Z2
G280
G1 F1500 E-6.5
;LAYER_COUNT:52
;LAYER:0
M107
M204 S625
M205 X6 Y6
G1 F600 Z2.27
G0 F3750 X100.023 Y40.22 Z2.27
M204 S500
M205 X5 Y5
;TYPE:SKIRT
G1 F600 Z0.27
G1 F1500 E0
G1 F1200 X100.283 Y39.523 E0.01322
G1 X100.616 Y38.857 E0.02646
G1 X101.018 Y38.231 E0.03968
G1 X101.485 Y37.651 E0.05292
G1 X101.859 Y37.277 E0.06232
G1 X101.992 Y36.78 E0.07147
G1 X102.259 Y36.086 E0.08469
G1 X102.6 Y35.424 E0.09792
G1 X103.009 Y34.802 E0.11116
G1 X103.487 Y34.224 E0.12449
G1 X104.027 Y33.638 E0.13865
G1 X104.424 Y33.24 E0.14865
G1 X105.004 Y32.705 E0.16267
G1 X105.578 Y32.231 E0.17591
G1 X106.199 Y31.82 E0.18914
G1 X106.86 Y31.479 E0.20237
G1 X107.554 Y31.21 E0.2156
G1 X108.067 Y31.073 E0.22504
G1 X108.406 Y30.73 E0.23361
G1 X108.982 Y30.259 E0.24683
G1 X109.606 Y29.853 E0.26007
G1 X110.27 Y29.516 E0.2733
G1 X110.993 Y29.244 E0.28704
G1 X111.751 Y29.006 E0.30116
G1 X112.321 Y28.854 E0.31164
G1 X113.098 Y28.681 E0.32579
G1 X113.832 Y28.558 E0.33902
G1 X114.575 Y28.515 E0.35225
G1 X115.319 Y28.552 E0.3655
G1 X116.054 Y28.668 E0.37872
G1 X116.543 Y28.801 E0.38773
G1 X117.067 Y28.662 E0.39737
G1 X117.802 Y28.549 E0.41059
G1 X118.546 Y28.515 E0.42383
G1 X119.289 Y28.562 E0.43706
G1 X119.996 Y28.681 E0.4498
G1 X120.78 Y28.856 E0.46408
G1 X121.348 Y29.009 E0.47454
G1 X122.099 Y29.245 E0.48853
G1 X122.796 Y29.506 E0.50176
G1 X123.461 Y29.84 E0.51499
G1 X124.086 Y30.244 E0.52822
G1 X124.665 Y30.712 E0.54145
G1 X125.025 Y31.075 E0.55054
G1 X125.525 Y31.208 E0.55974
G1 X126.219 Y31.475 E0.57296
G1 X126.881 Y31.816 E0.58619
G1 X127.503 Y32.225 E0.59943
G1 X128.077 Y32.699 E0.61266
G1 X128.664 Y33.239 E0.62684
G1 X129.074 Y33.649 E0.63714
G1 X129.608 Y34.23 E0.65117
G1 X130.082 Y34.805 E0.66442
G1 X130.491 Y35.426 E0.67764
G1 X130.831 Y36.089 E0.69088
G1 X131.098 Y36.783 E0.7041
G1 X131.23 Y37.28 E0.71324
G1 X131.575 Y37.621 E0.72186
G1 X132.046 Y38.197 E0.73509
G1 X132.452 Y38.821 E0.74832
G1 X132.789 Y39.485 E0.76156
G1 X133.061 Y40.208 E0.77529
G1 X133.298 Y40.963 E0.78936
G1 X133.45 Y41.53 E0.79979
G1 X133.624 Y42.31 E0.814
G1 X133.747 Y43.044 E0.82723
G1 X133.79 Y43.787 E0.84046
G1 X133.753 Y44.531 E0.8537
G1 X133.637 Y45.266 E0.86693
G1 X133.504 Y45.758 E0.87599
G1 X133.643 Y46.282 E0.88562
G1 X133.756 Y47.017 E0.89884
G1 X133.79 Y47.761 E0.91208
G1 X133.743 Y48.504 E0.92531
G1 X133.624 Y49.209 E0.93802
G1 X133.449 Y49.994 E0.95232
G1 X133.295 Y50.566 E0.96285
G1 X133.059 Y51.316 E0.97683
G1 X132.798 Y52.013 E0.99006
G1 X132.464 Y52.678 E1.00329
G1 X132.06 Y53.303 E1.01651
G1 X131.591 Y53.882 E1.02976
G1 X131.231 Y54.24 E1.03878
G1 X131.097 Y54.741 E1.048
G1 X130.83 Y55.435 E1.06122
G1 X130.489 Y56.097 E1.07446
G1 X130.08 Y56.719 E1.08769
G1 X129.607 Y57.292 E1.1009
G1 X129.068 Y57.878 E1.11505
G1 X128.657 Y58.289 E1.12538
G1 X128.075 Y58.824 E1.13944
G1 X127.501 Y59.297 E1.15266
G1 X126.879 Y59.707 E1.1659
G1 X126.217 Y60.047 E1.17913
G1 X125.522 Y60.314 E1.19236
G1 X125.026 Y60.446 E1.20149
G1 X124.684 Y60.792 E1.21014
G1 X124.108 Y61.263 E1.22336
G1 X123.484 Y61.669 E1.2366
G1 X122.82 Y62.006 E1.24983
G1 X122.079 Y62.283 E1.26389
G1 X121.32 Y62.519 E1.27802
G1 X120.772 Y62.666 E1.28811
G1 X119.997 Y62.839 E1.30222
G1 X119.263 Y62.961 E1.31545
G1 X118.52 Y63.005 E1.32868
G1 X117.776 Y62.968 E1.34192
G1 X117.041 Y62.852 E1.35515
G1 X116.549 Y62.719 E1.36421
G1 X116.002 Y62.863 E1.37427
G1 X115.266 Y62.974 E1.3875
G1 X114.523 Y63.006 E1.40072
G1 X113.78 Y62.957 E1.41395
G1 X113.085 Y62.838 E1.42649
G1 X112.301 Y62.662 E1.44077
G1 X111.747 Y62.513 E1.45097
G1 X110.997 Y62.278 E1.46494
G1 X110.3 Y62.018 E1.47816
G1 X109.634 Y61.684 E1.49141
G1 X109.009 Y61.281 E1.50463
G1 X108.43 Y60.813 E1.51786
G1 X108.064 Y60.446 E1.52707
G1 X107.564 Y60.313 E1.53627
G1 X106.87 Y60.046 E1.54949
G1 X106.208 Y59.705 E1.56273
G1 X105.586 Y59.296 E1.57596
G1 X105.008 Y58.818 E1.58929
G1 X104.422 Y58.278 E1.60346
G1 X104.024 Y57.881 E1.61345
G1 X103.489 Y57.301 E1.62748
G1 X103.015 Y56.727 E1.64071
G1 X102.604 Y56.106 E1.65395
G1 X102.263 Y55.445 E1.66717
G1 X101.994 Y54.751 E1.6804
G1 X101.857 Y54.239 E1.68982
G1 X101.494 Y53.878 E1.69892
G1 X101.026 Y53.299 E1.71215
G1 X100.623 Y52.674 E1.72537
G1 X100.289 Y52.008 E1.73862
G1 X100.026 Y51.304 E1.75198
G1 X99.789 Y50.546 E1.76609
G1 X99.641 Y49.994 E1.77625
G1 X99.467 Y49.218 E1.79039
G1 X99.343 Y48.484 E1.80362
G1 X99.299 Y47.741 E1.81685
G1 X99.335 Y46.998 E1.83008
G1 X99.45 Y46.262 E1.84332
G1 X99.586 Y45.76 E1.85256
G1 X99.447 Y45.238 E1.86216
G1 X99.334 Y44.503 E1.87538
G1 X99.3 Y43.759 E1.88862
G1 X99.347 Y43.016 E1.90186
G1 X99.467 Y42.308 E1.91462
G1 X99.643 Y41.52 E1.92897
G1 X99.79 Y40.967 E1.93915
G1 X100.023 Y40.22 E1.95306
M204 S625
M205 X6 Y6
G0 F3750 X100.424 Y40.346
M204 S500
M205 X5 Y5
G1 F1200 X100.677 Y39.67 E1.96589
G1 X101.003 Y39.026 E1.97872
G1 X101.398 Y38.423 E1.99153
G1 X101.857 Y37.866 E2.00436
G1 X102.233 Y37.503 E2.01365
G1 X102.405 Y36.868 E2.02535
G1 X102.67 Y36.197 E2.03817
G1 X103.008 Y35.559 E2.051
G1 X103.414 Y34.963 E2.06382
G1 X103.796 Y34.508 E2.07438
G1 X104.336 Y33.922 E2.08855
G1 X104.709 Y33.549 E2.09793
G1 X105.289 Y33.014 E2.11195
G1 X105.846 Y32.555 E2.12478
G1 X106.45 Y32.16 E2.13761
G1 X107.093 Y31.835 E2.15042
G1 X107.769 Y31.583 E2.16324
G1 X108.278 Y31.455 E2.17257
G1 X108.721 Y31.011 E2.18372
G1 X109.284 Y30.559 E2.19656
G1 X109.893 Y30.173 E2.20937
G1 X110.542 Y29.857 E2.2222
G1 X111.119 Y29.645 E2.23313
G1 X111.877 Y29.407 E2.24725
G1 X112.412 Y29.264 E2.2571
G1 X113.189 Y29.091 E2.27125
G1 X113.901 Y28.973 E2.28408
G1 X114.621 Y28.935 E2.29689
G1 X115.341 Y28.977 E2.30971
G1 X116.053 Y29.098 E2.32255
G1 X116.535 Y29.236 E2.33146
G1 X117.196 Y29.064 E2.3436
G1 X117.91 Y28.961 E2.35643
G1 X118.631 Y28.937 E2.36925
G1 X119.35 Y28.993 E2.38207
G1 X119.904 Y29.091 E2.39207
G1 X120.688 Y29.266 E2.40635
G1 X121.222 Y29.409 E2.41618
G1 X121.973 Y29.645 E2.43017
G1 X122.648 Y29.899 E2.44299
G1 X123.291 Y30.227 E2.45582
G1 X123.893 Y30.623 E2.46863
G1 X124.449 Y31.084 E2.48147
G1 X124.801 Y31.448 E2.49047
G1 X125.437 Y31.621 E2.50219
G1 X126.108 Y31.886 E2.51501
G1 X126.746 Y32.224 E2.52785
G1 X127.342 Y32.63 E2.54067
G1 X127.792 Y33.008 E2.55111
G1 X128.379 Y33.548 E2.56529
G1 X128.765 Y33.934 E2.57499
G1 X129.299 Y34.515 E2.58902
G1 X129.757 Y35.072 E2.60184
G1 X130.151 Y35.677 E2.61467
G1 X130.475 Y36.321 E2.62749
G1 X130.726 Y36.997 E2.64031
G1 X130.849 Y37.492 E2.64937
G1 X131.294 Y37.936 E2.66055
G1 X131.746 Y38.499 E2.67338
G1 X132.132 Y39.108 E2.6862
G1 X132.448 Y39.757 E2.69903
G1 X132.66 Y40.334 E2.70996
G1 X132.897 Y41.089 E2.72402
G1 X133.04 Y41.622 E2.73383
G1 X133.214 Y42.402 E2.74804
G1 X133.332 Y43.113 E2.76085
G1 X133.37 Y43.834 E2.77369
G1 X133.328 Y44.554 E2.78651
G1 X133.207 Y45.265 E2.79933
G1 X133.068 Y45.748 E2.80826
G1 X133.241 Y46.411 E2.82044
G1 X133.344 Y47.125 E2.83327
G1 X133.368 Y47.846 E2.84609
G1 X133.312 Y48.565 E2.85891
G1 X133.214 Y49.118 E2.86889
G1 X133.039 Y49.903 E2.88319
G1 X132.895 Y50.44 E2.89307
G1 X132.659 Y51.19 E2.90705
G1 X132.404 Y51.865 E2.91987
G1 X132.077 Y52.508 E2.9327
G1 X131.68 Y53.11 E2.94552
G1 X131.22 Y53.666 E2.95834
G1 X130.857 Y54.015 E2.96729
G1 X130.684 Y54.653 E2.97905
G1 X130.419 Y55.324 E2.99187
G1 X130.081 Y55.962 E3.0047
G1 X129.675 Y56.558 E3.01752
G1 X129.297 Y57.008 E3.02797
G1 X128.758 Y57.594 E3.04212
G1 X128.373 Y57.98 E3.05181
G1 X127.791 Y58.515 E3.06587
G1 X127.233 Y58.973 E3.0787
G1 X126.629 Y59.366 E3.09151
G1 X125.984 Y59.691 E3.10435
G1 X125.308 Y59.941 E3.11716
G1 X124.815 Y60.064 E3.12619
G1 X124.369 Y60.511 E3.13742
G1 X123.806 Y60.963 E3.15025
G1 X123.197 Y61.349 E3.16307
G1 X122.548 Y61.665 E3.1759
G1 X121.954 Y61.882 E3.18714
G1 X121.195 Y62.118 E3.20127
G1 X120.68 Y62.256 E3.21075
G1 X119.905 Y62.429 E3.22486
G1 X119.194 Y62.547 E3.23767
G1 X118.473 Y62.585 E3.25051
G1 X117.753 Y62.543 E3.26333
G1 X117.042 Y62.423 E3.27615
G1 X116.559 Y62.285 E3.28507
G1 X115.874 Y62.461 E3.29765
G1 X115.16 Y62.562 E3.31047
G1 X114.439 Y62.584 E3.32329
G1 X113.72 Y62.526 E3.33611
G1 X113.177 Y62.428 E3.34592
G1 X112.393 Y62.252 E3.3602
G1 X111.873 Y62.112 E3.36977
G1 X111.123 Y61.877 E3.38375
G1 X110.447 Y61.624 E3.39658
G1 X109.804 Y61.297 E3.4094
G1 X109.201 Y60.901 E3.42222
G1 X108.645 Y60.441 E3.43505
G1 X108.29 Y60.073 E3.44414
G1 X107.652 Y59.9 E3.45589
G1 X106.981 Y59.635 E3.46871
G1 X106.343 Y59.297 E3.48155
G1 X105.747 Y58.891 E3.49437
G1 X105.292 Y58.509 E3.50493
G1 X104.706 Y57.969 E3.51909
G1 X104.333 Y57.596 E3.52847
G1 X103.798 Y57.016 E3.5425
G1 X103.339 Y56.459 E3.55533
G1 X102.944 Y55.855 E3.56816
G1 X102.619 Y55.212 E3.58096
G1 X102.367 Y54.536 E3.59379
G1 X102.24 Y54.029 E3.60308
G1 X101.777 Y53.563 E3.61475
G1 X101.328 Y52.999 E3.62757
G1 X100.944 Y52.388 E3.6404
G1 X100.63 Y51.738 E3.65323
G1 X100.427 Y51.179 E3.6638
G1 X100.19 Y50.421 E3.67792
G1 X100.051 Y49.902 E3.68747
G1 X99.877 Y49.126 E3.70161
G1 X99.758 Y48.415 E3.71442
G1 X99.719 Y47.694 E3.72726
G1 X99.76 Y46.974 E3.74008
G1 X99.88 Y46.263 E3.75289
G1 X100.021 Y45.769 E3.76202
G1 X99.849 Y45.109 E3.77415
G1 X99.746 Y44.395 E3.78697
G1 X99.722 Y43.674 E3.7998
G1 X99.778 Y42.955 E3.81262
G1 X99.877 Y42.4 E3.82264
G1 X100.053 Y41.612 E3.83699
G1 X100.191 Y41.093 E3.84654
G1 X100.424 Y40.346 E3.86045
M204 S625
M205 X6 Y6
G0 F3750 X100.825 Y40.471
M204 S500
M205 X5 Y5
G1 F1200 X101.071 Y39.818 E3.87285
G1 X101.389 Y39.197 E3.88525
G1 X101.777 Y38.617 E3.89766
G1 X102.228 Y38.085 E3.91005
G1 X102.616 Y37.722 E3.9195
G1 X102.631 Y37.629 E3.92117
G1 X102.818 Y36.957 E3.93357
G1 X103.08 Y36.31 E3.94598
G1 X103.415 Y35.698 E3.95838
G1 X103.818 Y35.128 E3.97079
G1 X104.105 Y34.793 E3.97863
G1 X104.645 Y34.207 E3.9928
G1 X104.994 Y33.858 E4.00157
G1 X105.574 Y33.323 E4.0156
G1 X106.113 Y32.88 E4.028
G1 X106.699 Y32.501 E4.04041
G1 X107.325 Y32.193 E4.05281
G1 X107.982 Y31.957 E4.06522
G1 X108.499 Y31.837 E4.07465
G1 X108.541 Y31.784 E4.07585
G1 X109.036 Y31.293 E4.08825
G1 X109.584 Y30.861 E4.10065
G1 X110.179 Y30.496 E4.11306
G1 X110.811 Y30.2 E4.12546
G1 X111.245 Y30.046 E4.13365
G1 X112.003 Y29.808 E4.14777
G1 X112.503 Y29.674 E4.15698
G1 X113.28 Y29.501 E4.17113
G1 X113.969 Y29.388 E4.18354
G1 X114.666 Y29.355 E4.19594
G1 X115.362 Y29.402 E4.20834
G1 X116.048 Y29.529 E4.22074
G1 X116.541 Y29.68 E4.22991
G1 X116.648 Y29.639 E4.23194
G1 X117.324 Y29.467 E4.24434
G1 X118.016 Y29.373 E4.25676
G1 X118.713 Y29.359 E4.26915
G1 X119.408 Y29.425 E4.28156
G1 X119.813 Y29.501 E4.28889
G1 X120.597 Y29.676 E4.30316
G1 X121.096 Y29.81 E4.31235
G1 X121.847 Y30.046 E4.32634
G1 X122.499 Y30.293 E4.33874
G1 X123.119 Y30.613 E4.35114
G1 X123.699 Y31.002 E4.36355
G1 X124.23 Y31.454 E4.37595
G1 X124.582 Y31.832 E4.38513
G1 X124.676 Y31.847 E4.38682
G1 X125.348 Y32.034 E4.39922
G1 X125.995 Y32.296 E4.41163
G1 X126.607 Y32.631 E4.42403
G1 X127.177 Y33.034 E4.43644
G1 X127.508 Y33.317 E4.44418
G1 X128.095 Y33.857 E4.45836
G1 X128.456 Y34.218 E4.46744
G1 X128.99 Y34.799 E4.48146
G1 X129.432 Y35.339 E4.49387
G1 X129.809 Y35.926 E4.50627
G1 X130.117 Y36.552 E4.51867
G1 X130.351 Y37.209 E4.53107
G1 X130.467 Y37.713 E4.54026
G1 X130.521 Y37.756 E4.54149
G1 X131.012 Y38.251 E4.55388
G1 X131.444 Y38.799 E4.56629
G1 X131.809 Y39.394 E4.57869
G1 X132.105 Y40.026 E4.5911
G1 X132.259 Y40.46 E4.59929
G1 X132.496 Y41.215 E4.61335
G1 X132.63 Y41.713 E4.62252
G1 X132.804 Y42.493 E4.63673
G1 X132.917 Y43.182 E4.64914
G1 X132.95 Y43.879 E4.66154
G1 X132.903 Y44.575 E4.67394
G1 X132.777 Y45.261 E4.68634
G1 X132.625 Y45.756 E4.69554
G1 X132.666 Y45.863 E4.69758
G1 X132.838 Y46.539 E4.70998
G1 X132.932 Y47.231 E4.72239
G1 X132.946 Y47.928 E4.73479
G1 X132.88 Y48.623 E4.7472
G1 X132.804 Y49.026 E4.75449
G1 X132.629 Y49.811 E4.76878
G1 X132.494 Y50.314 E4.77804
G1 X132.258 Y51.064 E4.79202
G1 X132.011 Y51.716 E4.80441
G1 X131.691 Y52.336 E4.81681
G1 X131.302 Y52.916 E4.82923
G1 X130.849 Y53.446 E4.84162
G1 X130.473 Y53.797 E4.85076
G1 X130.458 Y53.892 E4.85247
G1 X130.271 Y54.564 E4.86487
G1 X130.009 Y55.211 E4.87728
G1 X129.674 Y55.823 E4.88968
G1 X129.271 Y56.393 E4.90209
G1 X128.988 Y56.724 E4.90983
G1 X128.449 Y57.31 E4.92399
G1 X128.088 Y57.671 E4.93306
G1 X127.506 Y58.206 E4.94711
G1 X126.967 Y58.647 E4.95949
G1 X126.38 Y59.025 E4.97191
G1 X125.754 Y59.333 E4.98431
G1 X125.096 Y59.567 E4.99672
G1 X124.593 Y59.683 E5.0059
G1 X124.549 Y59.738 E5.00715
G1 X124.054 Y60.229 E5.01954
G1 X123.506 Y60.661 E5.03195
G1 X122.911 Y61.026 E5.04436
G1 X122.279 Y61.322 E5.05676
G1 X121.829 Y61.481 E5.06524
G1 X121.07 Y61.717 E5.07937
G1 X120.589 Y61.846 E5.08823
G1 X119.814 Y62.019 E5.10234
G1 X119.125 Y62.131 E5.11475
G1 X118.428 Y62.165 E5.12715
G1 X117.732 Y62.118 E5.13955
G1 X117.046 Y61.992 E5.15195
G1 X116.549 Y61.84 E5.16119
G1 X116.424 Y61.887 E5.16357
G1 X115.747 Y62.058 E5.17598
G1 X115.055 Y62.149 E5.18838
G1 X114.358 Y62.161 E5.20078
G1 X113.663 Y62.093 E5.21319
G1 X113.269 Y62.018 E5.22032
G1 X112.485 Y61.842 E5.2346
G1 X111.998 Y61.711 E5.24357
G1 X111.248 Y61.476 E5.25754
G1 X110.595 Y61.23 E5.26994
G1 X109.975 Y60.911 E5.28234
G1 X109.395 Y60.522 E5.29475
G1 X108.864 Y60.07 E5.30715
G1 X108.508 Y59.689 E5.31642
G1 X108.413 Y59.674 E5.31813
G1 X107.741 Y59.487 E5.33052
G1 X107.094 Y59.225 E5.34293
G1 X106.482 Y58.89 E5.35533
G1 X105.912 Y58.487 E5.36774
G1 X105.577 Y58.2 E5.37559
G1 X104.991 Y57.66 E5.38975
G1 X104.642 Y57.311 E5.39852
G1 X104.107 Y56.731 E5.41255
G1 X103.664 Y56.192 E5.42495
G1 X103.285 Y55.606 E5.43736
G1 X102.977 Y54.98 E5.44976
G1 X102.741 Y54.323 E5.46217
G1 X102.62 Y53.805 E5.47162
G1 X102.549 Y53.747 E5.47325
G1 X102.06 Y53.25 E5.48565
G1 X101.631 Y52.7 E5.49805
G1 X101.268 Y52.104 E5.51045
G1 X100.975 Y51.471 E5.52285
G1 X100.827 Y51.053 E5.53073
G1 X100.59 Y50.295 E5.54485
G1 X100.461 Y49.81 E5.55377
G1 X100.287 Y49.034 E5.56791
G1 X100.173 Y48.346 E5.58031
G1 X100.139 Y47.649 E5.59271
G1 X100.185 Y46.953 E5.60511
G1 X100.311 Y46.267 E5.61751
G1 X100.464 Y45.763 E5.62687
G1 X100.424 Y45.657 E5.62888
G1 X100.252 Y44.981 E5.64128
G1 X100.158 Y44.289 E5.6537
G1 X100.144 Y43.592 E5.66609
G1 X100.21 Y42.897 E5.6785
G1 X100.286 Y42.492 E5.68583
G1 X100.462 Y41.704 E5.70018
G1 X100.592 Y41.218 E5.70912
G1 X100.825 Y40.471 E5.72303
M204 S625
M205 X6 Y6
G0 F3750 X101.226 Y40.596
M204 S500
M205 X5 Y5
G1 F1200 X101.464 Y39.966 E5.735
G1 X101.776 Y39.369 E5.74698
G1 X102.155 Y38.813 E5.75894
G1 X102.598 Y38.306 E5.77091
G1 X103.005 Y37.96 E5.7804
G1 X103.047 Y37.695 E5.78517
G1 X103.231 Y37.047 E5.79714
G1 X103.491 Y36.426 E5.80911
G1 X103.822 Y35.84 E5.82108
G1 X104.413 Y35.078 E5.83822
G1 X104.953 Y34.492 E5.85238
G1 X105.279 Y34.166 E5.86058
G1 X105.859 Y33.631 E5.8746
G1 X106.38 Y33.205 E5.88657
G1 X106.948 Y32.844 E5.89853
G1 X107.554 Y32.552 E5.91049
G1 X108.191 Y32.334 E5.92246
G1 X108.717 Y32.236 E5.93197
G1 X108.869 Y32.047 E5.93628
G1 X109.35 Y31.576 E5.94825
G1 X109.883 Y31.166 E5.9602
G1 X110.462 Y30.821 E5.97218
G1 X111.37 Y30.446 E5.98964
G1 X112.128 Y30.208 E6.00377
G1 X112.595 Y30.084 E6.01235
G1 X113.372 Y29.911 E6.0265
G1 X114.036 Y29.803 E6.03846
G1 X114.709 Y29.776 E6.05044
G1 X115.38 Y29.828 E6.0624
G1 X116.04 Y29.96 E6.07436
G1 X116.531 Y30.133 E6.08362
G1 X116.797 Y30.032 E6.08868
G1 X117.451 Y29.87 E6.10065
G1 X118.119 Y29.787 E6.11262
G1 X118.792 Y29.783 E6.12458
G1 X119.721 Y29.911 E6.14125
G1 X120.505 Y30.086 E6.15553
G1 X120.97 Y30.211 E6.16409
