;START_OF_HEADER
;HEADER_VERSION:0.1
;FLAVOR:Griffin
;GENERATOR.NAME:Cura_SteamEngine
;GENERATOR.VERSION:4.9.1
;GENERATOR.BUILD_DATE:2021-05-10
;TARGET_MACHINE.NAME:Ultimaker 3
;EXTRUDER_TRAIN.0.INITIAL_TEMPERATURE:205
;EXTRUDER_TRAIN.0.MATERIAL.VOLUME_USED:3015
;EXTRUDER_TRAIN.0.MATERIAL.GUID:506c9f0d-e3aa-4bd4-b2d2-23e2425b1aa9
;EXTRUDER_TRAIN.0.NOZZLE.DIAMETER:0.4
;EXTRUDER_TRAIN.0.NOZZLE.NAME:AA 0.4
;BUILD_PLATE.TYPE:glass
;BUILD_PLATE.INITIAL_TEMPERATURE:60
;PRINT.TIME:2072
;PRINT.GROUPS:1
;PRINT.SIZE.MIN.X:9
;PRINT.SIZE.MIN.Y:6
;PRINT.SIZE.MIN.Z:0.27
;PRINT.SIZE.MAX.X:146.477
;PRINT.SIZE.MAX.Y:50.851
;PRINT.SIZE.MAX.Z:8.52
;END_OF_HEADER
;Generated with Cura_SteamEngine 4.9.1
T0
M82 ;absolute extrusion mode

G92 E0
M109 S205
G0 F15000 X9 Y6 Z2
G280
G1 F1500 E-6.5
;LAYER_COUNT:56
;LAYER:0
M107
M204 S625
M205 X6 Y6
G1 F600 Z2.27
G0 F3750 X73.974 Y31.948 Z2.27
M204 S500
M205 X5 Y5
;TYPE:SKIRT
G1 F600 Z0.27
G1 F1500 E0
G1 F1200 X74.247 Y31.256 E0.01322
G1 X74.593 Y30.597 E0.02645
G1 X75.008 Y29.979 E0.03969
G1 X75.647 Y29.244 E0.057
G1 X75.77 Y29.121 E0.06009
G1 X76.324 Y28.623 E0.07333
G1 X76.928 Y28.188 E0.08657
G1 X77.575 Y27.821 E0.09979
G1 X78.257 Y27.524 E0.11301
G1 X78.968 Y27.303 E0.12625
G1 X79.698 Y27.159 E0.13947
G1 X80.67 Y27.091 E0.15679
G1 X139.424 Y27.091 E1.2012
G1 X140.167 Y27.131 E1.21443
G1 X140.902 Y27.25 E1.22766
G1 X141.62 Y27.448 E1.2409
G1 X142.312 Y27.721 E1.25413
G1 X142.971 Y28.067 E1.26736
G1 X143.589 Y28.482 E1.28059
G1 X144.324 Y29.121 E1.2979
G1 X144.447 Y29.244 E1.301
G1 X144.945 Y29.798 E1.31424
G1 X145.38 Y30.402 E1.32747
G1 X145.747 Y31.049 E1.34069
G1 X146.044 Y31.731 E1.35391
G1 X146.265 Y32.442 E1.36715
G1 X146.409 Y33.172 E1.38038
G1 X146.477 Y34.144 E1.3977
G1 X146.477 Y43.798 E1.56931
G1 X146.437 Y44.541 E1.58253
G1 X146.318 Y45.276 E1.59577
G1 X146.12 Y45.994 E1.60901
G1 X145.847 Y46.686 E1.62223
G1 X145.501 Y47.345 E1.63546
G1 X145.086 Y47.963 E1.64869
G1 X144.447 Y48.698 E1.66601
G1 X144.324 Y48.821 E1.6691
G1 X143.77 Y49.319 E1.68234
G1 X143.166 Y49.754 E1.69557
G1 X142.519 Y50.121 E1.7088
G1 X141.837 Y50.418 E1.72202
G1 X141.126 Y50.639 E1.73525
G1 X140.396 Y50.783 E1.74848
G1 X139.424 Y50.851 E1.7658
G1 X80.67 Y50.851 E2.81021
G1 X79.927 Y50.811 E2.82344
G1 X79.192 Y50.692 E2.83667
G1 X78.474 Y50.494 E2.84991
G1 X77.782 Y50.221 E2.86314
G1 X77.123 Y49.875 E2.87637
G1 X76.505 Y49.46 E2.8896
G1 X75.77 Y48.821 E2.90691
G1 X75.647 Y48.698 E2.91
G1 X75.149 Y48.144 E2.92325
G1 X74.714 Y47.54 E2.93648
G1 X74.347 Y46.893 E2.9497
G1 X74.05 Y46.211 E2.96292
G1 X73.829 Y45.5 E2.97616
G1 X73.685 Y44.77 E2.98938
G1 X73.617 Y43.798 E3.0067
G1 X73.617 Y34.144 E3.17831
G1 X73.657 Y33.401 E3.19154
G1 X73.776 Y32.666 E3.20478
G1 X73.974 Y31.948 E3.21802
M204 S625
M205 X6 Y6
G0 F3750 X74.394 Y32.018
M204 S500
M205 X5 Y5
G1 F1200 X74.667 Y31.351 E3.23083
G1 X75.012 Y30.717 E3.24366
G1 X75.425 Y30.126 E3.25647
G1 X75.944 Y29.541 E3.27038
G1 X76.067 Y29.418 E3.27347
G1 X76.604 Y28.937 E3.28628
G1 X77.192 Y28.518 E3.29912
G1 X77.822 Y28.167 E3.31194
G1 X78.487 Y27.888 E3.32476
G1 X79.179 Y27.684 E3.33758
G1 X79.889 Y27.558 E3.3504
G1 X80.67 Y27.511 E3.36431
G1 X139.424 Y27.511 E4.40872
G1 X140.144 Y27.551 E4.42153
G1 X140.856 Y27.67 E4.43437
G1 X141.55 Y27.868 E4.4472
G1 X142.217 Y28.141 E4.46001
G1 X142.851 Y28.486 E4.47284
G1 X143.442 Y28.899 E4.48565
G1 X144.027 Y29.418 E4.49956
G1 X144.15 Y29.541 E4.50265
G1 X144.631 Y30.078 E4.51546
G1 X145.05 Y30.666 E4.5283
G1 X145.401 Y31.296 E4.54112
G1 X145.68 Y31.961 E4.55394
G1 X145.884 Y32.653 E4.56676
G1 X146.01 Y33.363 E4.57958
G1 X146.057 Y34.144 E4.59349
G1 X146.057 Y43.798 E4.7651
G1 X146.017 Y44.518 E4.77791
G1 X145.898 Y45.23 E4.79075
G1 X145.7 Y45.924 E4.80358
G1 X145.427 Y46.591 E4.81639
G1 X145.082 Y47.225 E4.82922
G1 X144.669 Y47.816 E4.84203
G1 X144.15 Y48.401 E4.85593
G1 X144.027 Y48.524 E4.85903
G1 X143.49 Y49.005 E4.87184
G1 X142.902 Y49.424 E4.88468
G1 X142.272 Y49.775 E4.8975
G1 X141.607 Y50.054 E4.91032
G1 X140.915 Y50.258 E4.92314
G1 X140.205 Y50.384 E4.93596
G1 X139.424 Y50.431 E4.94987
G1 X80.67 Y50.431 E5.99428
G1 X79.95 Y50.391 E6.00709
G1 X79.238 Y50.272 E6.01993
G1 X78.544 Y50.074 E6.03276
G1 X77.877 Y49.801 E6.04557
G1 X77.243 Y49.456 E6.0584
G1 X76.652 Y49.043 E6.07121
G1 X76.067 Y48.524 E6.08512
G1 X75.944 Y48.401 E6.08821
G1 X75.463 Y47.864 E6.10102
G1 X75.044 Y47.276 E6.11386
G1 X74.693 Y46.646 E6.12668
G1 X74.414 Y45.981 E6.1395
G1 X74.21 Y45.289 E6.15232
G1 X74.084 Y44.579 E6.16514
G1 X74.037 Y43.798 E6.17905
G1 X74.037 Y34.144 E6.35066
G1 X74.077 Y33.424 E6.36347
G1 X74.196 Y32.712 E6.37631
G1 X74.394 Y32.018 E6.38913
M204 S625
M205 X6 Y6
G0 F3750 X74.814 Y32.091
M204 S500
M205 X5 Y5
G1 F1200 X75.086 Y31.448 E6.40155
G1 X75.43 Y30.842 E6.41393
G1 X75.842 Y30.278 E6.42635
G1 X76.241 Y29.838 E6.43691
G1 X76.364 Y29.715 E6.44
G1 X76.885 Y29.25 E6.45241
G1 X77.455 Y28.849 E6.4648
G1 X78.068 Y28.515 E6.47721
G1 X78.715 Y28.253 E6.48962
G1 X79.387 Y28.068 E6.50201
G1 X80.076 Y27.96 E6.51441
G1 X80.67 Y27.931 E6.52498
G1 X139.424 Y27.931 E7.56939
G1 X140.121 Y27.971 E7.5818
G1 X140.808 Y28.09 E7.59419
G1 X141.477 Y28.288 E7.60659
G1 X142.12 Y28.56 E7.619
G1 X142.726 Y28.904 E7.63139
G1 X143.29 Y29.316 E7.64381
G1 X143.73 Y29.715 E7.65436
G1 X143.853 Y29.838 E7.65746
G1 X144.318 Y30.359 E7.66987
G1 X144.719 Y30.929 E7.68226
G1 X145.053 Y31.542 E7.69467
G1 X145.315 Y32.189 E7.70708
G1 X145.5 Y32.861 E7.71947
G1 X145.608 Y33.55 E7.73186
G1 X145.637 Y34.144 E7.74243
G1 X145.637 Y43.798 E7.91404
G1 X145.597 Y44.495 E7.92645
G1 X145.478 Y45.182 E7.93885
G1 X145.28 Y45.851 E7.95125
G1 X145.008 Y46.494 E7.96366
G1 X144.664 Y47.1 E7.97605
G1 X144.252 Y47.664 E7.98846
G1 X143.853 Y48.104 E7.99902
G1 X143.73 Y48.227 E8.00211
G1 X143.209 Y48.692 E8.01453
G1 X142.639 Y49.093 E8.02692
G1 X142.026 Y49.427 E8.03932
G1 X141.379 Y49.689 E8.05173
G1 X140.707 Y49.874 E8.06412
G1 X140.018 Y49.982 E8.07652
G1 X139.424 Y50.011 E8.08709
G1 X80.67 Y50.011 E9.1315
G1 X79.973 Y49.971 E9.14391
G1 X79.286 Y49.852 E9.15631
G1 X78.617 Y49.654 E9.16871
G1 X77.974 Y49.382 E9.18112
G1 X77.368 Y49.038 E9.1935
G1 X76.804 Y48.626 E9.20592
G1 X76.364 Y48.227 E9.21648
G1 X76.241 Y48.104 E9.21957
G1 X75.776 Y47.583 E9.23198
G1 X75.375 Y47.013 E9.24437
G1 X75.041 Y46.4 E9.25678
G1 X74.779 Y45.753 E9.26919
G1 X74.594 Y45.081 E9.28158
G1 X74.486 Y44.392 E9.29398
G1 X74.457 Y43.798 E9.30455
G1 X74.457 Y34.144 E9.47616
G1 X74.497 Y33.447 E9.48857
G1 X74.616 Y32.76 E9.50096
G1 X74.814 Y32.091 E9.51336
M204 S625
M205 X6 Y6
G0 F3750 X75.233 Y32.166
M204 S500
M205 X5 Y5
G1 F1200 X75.505 Y31.55 E9.52533
G1 X75.848 Y30.971 E9.5373
G1 X76.257 Y30.436 E9.54927
G1 X76.661 Y30.012 E9.55968
G1 X77.164 Y29.565 E9.57164
G1 X77.717 Y29.181 E9.58361
G1 X78.312 Y28.865 E9.59558
G1 X78.939 Y28.622 E9.60754
G1 X79.591 Y28.455 E9.6195
G1 X80.259 Y28.366 E9.63148
G1 X80.67 Y28.351 E9.63879
G1 X139.424 Y28.351 E10.6832
G1 X140.096 Y28.391 E10.69517
G1 X140.759 Y28.51 E10.70714
G1 X141.402 Y28.707 E10.7191
G1 X142.018 Y28.979 E10.73107
G1 X142.597 Y29.322 E10.74303
G1 X143.132 Y29.731 E10.755
G1 X143.556 Y30.135 E10.76541
G1 X144.003 Y30.638 E10.77737
G1 X144.387 Y31.191 E10.78934
G1 X144.703 Y31.786 E10.80131
G1 X144.946 Y32.413 E10.81327
G1 X145.113 Y33.065 E10.82523
G1 X145.202 Y33.733 E10.83721
G1 X145.217 Y34.144 E10.84452
G1 X145.217 Y43.798 E11.01613
G1 X145.177 Y44.47 E11.0281
G1 X145.058 Y45.133 E11.04007
G1 X144.861 Y45.776 E11.05203
G1 X144.589 Y46.392 E11.064
G1 X144.246 Y46.971 E11.07596
G1 X143.837 Y47.506 E11.08793
G1 X143.433 Y47.93 E11.09834
G1 X142.93 Y48.377 E11.1103
G1 X142.377 Y48.761 E11.12227
G1 X141.782 Y49.077 E11.13425
G1 X141.155 Y49.32 E11.1462
G1 X140.503 Y49.487 E11.15816
G1 X139.835 Y49.576 E11.17014
G1 X139.424 Y49.591 E11.17745
G1 X80.67 Y49.591 E12.22186
G1 X79.998 Y49.551 E12.23383
G1 X79.335 Y49.432 E12.2458
G1 X78.692 Y49.235 E12.25776
G1 X78.076 Y48.963 E12.26973
G1 X77.497 Y48.62 E12.28169
G1 X76.962 Y48.211 E12.29366
G1 X76.538 Y47.807 E12.30407
G1 X76.091 Y47.304 E12.31603
G1 X75.707 Y46.751 E12.328
G1 X75.391 Y46.156 E12.33998
G1 X75.148 Y45.529 E12.35193
G1 X74.981 Y44.877 E12.36389
G1 X74.892 Y44.209 E12.37587
G1 X74.877 Y43.798 E12.38318
G1 X74.877 Y34.144 E12.55479
G1 X74.917 Y33.472 E12.56676
G1 X75.036 Y32.809 E12.57873
G1 X75.233 Y32.166 E12.59069
M204 S625
M205 X6 Y6
G0 F3750 X75.653 Y32.244
M204 S500
M205 X5 Y5
G1 F1200 X75.924 Y31.655 E12.60221
G1 X76.266 Y31.105 E12.61373
G1 X76.835 Y30.432 E12.62939
G1 X76.958 Y30.309 E12.63248
G1 X77.443 Y29.88 E12.64399
G1 X77.978 Y29.514 E12.65552
G1 X78.553 Y29.217 E12.66702
G1 X79.161 Y28.993 E12.67854
G1 X79.792 Y28.845 E12.69006
G1 X80.67 Y28.771 E12.70572
G1 X139.424 Y28.771 E13.75013
G1 X140.071 Y28.811 E13.76166
G1 X140.707 Y28.93 E13.77316
G1 X141.324 Y29.127 E13.78467
G1 X141.913 Y29.398 E13.7962
G1 X142.463 Y29.74 E13.80771
G1 X143.136 Y30.309 E13.82337
G1 X143.259 Y30.432 E13.82647
G1 X143.688 Y30.917 E13.83798
G1 X144.054 Y31.452 E13.8495
G1 X144.351 Y32.027 E13.861
G1 X144.575 Y32.635 E13.87252
G1 X144.723 Y33.266 E13.88404
G1 X144.797 Y34.144 E13.89971
G1 X144.797 Y43.798 E14.07131
G1 X144.757 Y44.445 E14.08284
G1 X144.638 Y45.081 E14.09434
G1 X144.441 Y45.698 E14.10585
G1 X144.17 Y46.287 E14.11738
G1 X143.828 Y46.837 E14.12889
G1 X143.259 Y47.51 E14.14456
G1 X143.136 Y47.633 E14.14765
G1 X142.651 Y48.062 E14.15916
G1 X142.116 Y48.428 E14.17068
G1 X141.541 Y48.725 E14.18219
G1 X140.933 Y48.949 E14.1937
G1 X140.302 Y49.097 E14.20522
G1 X139.424 Y49.171 E14.22089
G1 X80.67 Y49.171 E15.2653
G1 X80.023 Y49.131 E15.27682
G1 X79.387 Y49.012 E15.28832
G1 X78.77 Y48.815 E15.29983
G1 X78.181 Y48.544 E15.31136
G1 X77.631 Y48.202 E15.32287
G1 X76.958 Y47.633 E15.33854
G1 X76.835 Y47.51 E15.34163
G1 X76.406 Y47.025 E15.35314
G1 X76.04 Y46.49 E15.36466
G1 X75.743 Y45.915 E15.37617
G1 X75.519 Y45.307 E15.38769
G1 X75.371 Y44.676 E15.39921
G1 X75.297 Y43.798 E15.41487
G1 X75.297 Y34.144 E15.58648
G1 X75.337 Y33.497 E15.598
G1 X75.456 Y32.861 E15.6095
G1 X75.653 Y32.244 E15.62102
M204 S625
M205 X6 Y6
G0 F3750 X76.073 Y32.325
M204 S500
M205 X5 Y5
G1 F1200 X76.343 Y31.766 E15.63205
G1 X76.683 Y31.246 E15.6431
G1 X77.132 Y30.729 E15.65527
G1 X77.255 Y30.606 E15.65836
G1 X77.721 Y30.196 E15.66939
G1 X78.237 Y29.849 E15.68045
G1 X78.793 Y29.571 E15.6915
G1 X79.379 Y29.367 E15.70253
G1 X79.987 Y29.239 E15.71357
G1 X80.67 Y29.191 E15.72574
G1 X139.424 Y29.191 E16.77015
G1 X140.044 Y29.231 E16.7812
G1 X140.654 Y29.35 E16.79224
G1 X141.243 Y29.547 E16.80328
G1 X141.802 Y29.817 E16.81432
G1 X142.322 Y30.157 E16.82536
G1 X142.839 Y30.606 E16.83754
G1 X142.962 Y30.729 E16.84063
G1 X143.372 Y31.195 E16.85166
G1 X143.719 Y31.711 E16.86271
G1 X143.997 Y32.267 E16.87376
G1 X144.201 Y32.853 E16.88479
G1 X144.329 Y33.461 E16.89584
G1 X144.377 Y34.144 E16.90801
G1 X144.377 Y43.798 E17.07962
G1 X144.337 Y44.418 E17.09066
G1 X144.218 Y45.028 E17.10171
G1 X144.021 Y45.617 E17.11275
G1 X143.751 Y46.176 E17.12379
G1 X143.411 Y46.696 E17.13483
G1 X142.962 Y47.213 E17.147
G1 X142.839 Y47.336 E17.15009
G1 X142.373 Y47.746 E17.16113
G1 X141.857 Y48.093 E17.17218
G1 X141.301 Y48.371 E17.18323
G1 X140.715 Y48.575 E17.19426
G1 X140.107 Y48.703 E17.20531
G1 X139.424 Y48.751 E17.21748
G1 X80.67 Y48.751 E18.26189
G1 X80.05 Y48.711 E18.27293
G1 X79.44 Y48.592 E18.28398
G1 X78.851 Y48.395 E18.29502
G1 X78.292 Y48.125 E18.30605
G1 X77.772 Y47.785 E18.3171
G1 X77.255 Y47.336 E18.32927
G1 X77.132 Y47.213 E18.33236
G1 X76.722 Y46.747 E18.3434
G1 X76.375 Y46.231 E18.35445
G1 X76.097 Y45.675 E18.3655
G1 X75.893 Y45.089 E18.37653
G1 X75.765 Y44.481 E18.38757
G1 X75.717 Y43.798 E18.39974
G1 X75.717 Y34.144 E18.57135
G1 X75.757 Y33.524 E18.5824
G1 X75.876 Y32.914 E18.59345
G1 X76.073 Y32.325 E18.60449
M204 S625
M205 X6 Y6
G0 F3750 X76.296 Y32.97
M204 S500
M205 X5 Y5
G1 F1200 X76.492 Y32.41 E18.61503
G1 X76.762 Y31.881 E18.62559
G1 X77.1 Y31.393 E18.63614
G1 X77.552 Y30.903 E18.64799
G1 X77.999 Y30.512 E18.65855
G1 X78.494 Y30.185 E18.66909
G1 X79.029 Y29.928 E18.67965
G1 X79.594 Y29.744 E18.69021
G1 X80.178 Y29.639 E18.70076
G1 X80.67 Y29.611 E18.70952
G1 X139.424 Y29.611 E19.75392
G1 X140.016 Y29.651 E19.76447
G1 X140.598 Y29.77 E19.77503
G1 X141.158 Y29.966 E19.78558
G1 X141.687 Y30.236 E19.79614
G1 X142.175 Y30.574 E19.80669
G1 X142.665 Y31.026 E19.81854
G1 X143.056 Y31.473 E19.8291
G1 X143.383 Y31.968 E19.83964
G1 X143.64 Y32.503 E19.85019
G1 X143.824 Y33.068 E19.86075
G1 X143.929 Y33.652 E19.8713
G1 X143.957 Y34.144 E19.88006
G1 X143.957 Y43.798 E20.05167
G1 X143.917 Y44.39 E20.06222
G1 X143.798 Y44.972 E20.07278
G1 X143.602 Y45.532 E20.08332
G1 X143.332 Y46.061 E20.09388
G1 X142.994 Y46.549 E20.10443
G1 X142.542 Y47.039 E20.11628
G1 X142.095 Y47.43 E20.12684
G1 X141.6 Y47.757 E20.13739
G1 X141.065 Y48.014 E20.14794
G1 X140.5 Y48.198 E20.1585
G1 X139.916 Y48.303 E20.16905
G1 X139.424 Y48.331 E20.17781
G1 X80.67 Y48.331 E21.22222
G1 X80.078 Y48.291 E21.23276
G1 X79.496 Y48.172 E21.24332
G1 X78.936 Y47.976 E21.25387
G1 X78.407 Y47.706 E21.26443
G1 X77.919 Y47.368 E21.27498
G1 X77.429 Y46.916 E21.28683
G1 X77.038 Y46.469 E21.29739
G1 X76.711 Y45.974 E21.30793
G1 X76.454 Y45.439 E21.31848
G1 X76.27 Y44.874 E21.32905
G1 X76.165 Y44.29 E21.33959
G1 X76.137 Y43.798 E21.34835
G1 X76.137 Y34.144 E21.51996
G1 X76.177 Y33.552 E21.53051
G1 X76.296 Y32.97 E21.54107
M204 S625
M205 X6 Y6
G0 F3750 X76.716 Y33.029
M204 S500
M205 X5 Y5
G1 F1200 X76.912 Y32.499 E21.55111
G1 X77.18 Y32.003 E21.56114
G1 X77.516 Y31.549 E21.57118
G1 X77.849 Y31.2 E21.57975
G1 X78.275 Y30.83 E21.58978
G1 X78.75 Y30.524 E21.59983
G1 X79.263 Y30.287 E21.60987
G1 X79.804 Y30.126 E21.6199
G1 X80.362 Y30.043 E21.62993
G1 X80.67 Y30.031 E21.63541
G1 X139.424 Y30.031 E22.67982
G1 X139.987 Y30.071 E22.68985
G1 X140.539 Y30.19 E22.69989
G1 X141.069 Y30.386 E22.70994
G1 X141.565 Y30.654 E22.71996
G1 X142.019 Y30.99 E22.73
G1 X142.368 Y31.323 E22.73857
G1 X142.738 Y31.749 E22.7486
G1 X143.044 Y32.224 E22.75865
G1 X143.281 Y32.737 E22.76869
G1 X143.442 Y33.278 E22.77873
G1 X143.525 Y33.836 E22.78875
G1 X143.537 Y34.144 E22.79423
G1 X143.537 Y43.798 E22.96584
G1 X143.497 Y44.361 E22.97588
G1 X143.378 Y44.913 E22.98591
G1 X143.182 Y45.443 E22.99596
G1 X142.914 Y45.939 E23.00598
G1 X142.578 Y46.393 E23.01602
G1 X142.245 Y46.742 E23.0246
G1 X141.819 Y47.112 E23.03463
G1 X141.344 Y47.418 E23.04467
G1 X140.831 Y47.655 E23.05471
G1 X140.29 Y47.816 E23.06475
G1 X139.732 Y47.899 E23.07478
G1 X139.424 Y47.911 E23.08026
G1 X80.67 Y47.911 E24.12466
G1 X80.107 Y47.871 E24.1347
G1 X79.555 Y47.752 E24.14474
G1 X79.025 Y47.556 E24.15478
G1 X78.529 Y47.288 E24.1648
G1 X78.075 Y46.952 E24.17484
G1 X77.726 Y46.619 E24.18342
G1 X77.356 Y46.193 E24.19345
G1 X77.05 Y45.718 E24.20349
G1 X76.813 Y45.205 E24.21354
G1 X76.652 Y44.664 E24.22357
G1 X76.569 Y44.106 E24.2336
G1 X76.557 Y43.798 E24.23908
G1 X76.557 Y34.144 E24.41069
G1 X76.597 Y33.581 E24.42072
G1 X76.716 Y33.029 E24.43076
M204 S625
M205 X6 Y6
G0 F3750 X77.136 Y33.091
M204 S500
M205 X5 Y5
G1 F1200 X77.331 Y32.594 E24.44025
G1 X77.598 Y32.131 E24.44975
G1 X78.023 Y31.62 E24.46156
G1 X78.146 Y31.497 E24.46466
G1 X78.55 Y31.148 E24.47415
G1 X79.003 Y30.864 E24.48365
G1 X79.492 Y30.651 E24.49313
G1 X80.008 Y30.513 E24.50263
G1 X80.67 Y30.451 E24.51444
G1 X139.424 Y30.451 E25.55885
G1 X139.957 Y30.491 E25.56836
G1 X140.477 Y30.61 E25.57784
G1 X140.974 Y30.805 E25.58733
G1 X141.437 Y31.072 E25.59683
G1 X141.948 Y31.497 E25.60864
G1 X142.071 Y31.62 E25.61174
G1 X142.42 Y32.024 E25.62123
G1 X142.704 Y32.477 E25.63073
G1 X142.917 Y32.966 E25.64021
G1 X143.055 Y33.482 E25.64971
G1 X143.117 Y34.144 E25.66153
G1 X143.117 Y43.798 E25.83313
G1 X143.077 Y44.331 E25.84264
G1 X142.958 Y44.851 E25.85212
G1 X142.763 Y45.348 E25.86161
G1 X142.496 Y45.811 E25.87111
G1 X142.071 Y46.322 E25.88292
G1 X141.948 Y46.445 E25.88602
G1 X141.544 Y46.794 E25.89551
G1 X141.091 Y47.078 E25.90501
G1 X140.602 Y47.291 E25.91449
G1 X140.086 Y47.429 E25.92399
G1 X139.424 Y47.491 E25.93581
G1 X80.67 Y47.491 E26.98022
G1 X80.137 Y47.451 E26.98972
