;START_OF_HEADER
;HEADER_VERSION:0.1
;FLAVOR:Griffin
;GENERATOR.NAME:Cura_SteamEngine
;GENERATOR.VERSION:4.9.1
;GENERATOR.BUILD_DATE:2021-05-10
;TARGET_MACHINE.NAME:Ultimaker 3
;EXTRUDER_TRAIN.0.INITIAL_TEMPERATURE:200
;EXTRUDER_TRAIN.0.MATERIAL.VOLUME_USED:1260
;EXTRUDER_TRAIN.0.MATERIAL.GUID:506c9f0d-e3aa-4bd4-b2d2-23e2425b1aa9
;EXTRUDER_TRAIN.0.NOZZLE.DIAMETER:0.4
;EXTRUDER_TRAIN.0.NOZZLE.NAME:AA 0.4
;BUILD_PLATE.TYPE:glass
;BUILD_PLATE.INITIAL_TEMPERATURE:60
;PRINT.TIME:2401
;PRINT.GROUPS:1
;PRINT.SIZE.MIN.X:9
;PRINT.SIZE.MIN.Y:6
;PRINT.SIZE.MIN.Z:0.27
;PRINT.SIZE.MAX.X:133.79
;PRINT.SIZE.MAX.Y:124.745
;PRINT.SIZE.MAX.Z:7.95
;END_OF_HEADER
;Generated with Cura_SteamEngine 4.9.1
T0
M82 ;absolute extrusion mode

G92 E0
M109 S200
G0 F15000 X9 Y6 Z2
G280
G1 F1500 E-6.5
;LAYER_COUNT:129
;LAYER:0
M107
M204 S625
M205 X6 Y6
G1 F600 Z2.27
G0 F5000 X104.019 Y95.386 Z2.27
M204 S500
M205 X5 Y5
;TYPE:SKIRT
G1 F600 Z0.27
G1 F1500 E0
G1 F1200 X104.429 Y94.975 E0.01032
G1 X105.009 Y94.441 E0.02433
G1 X105.583 Y93.967 E0.03757
G1 X106.204 Y93.557 E0.05079
G1 X106.866 Y93.216 E0.06403
G1 X107.561 Y92.948 E0.07727
G1 X108.066 Y92.814 E0.08656
G1 X108.406 Y92.47 E0.09516
G1 X108.982 Y91.999 E0.10838
G1 X109.606 Y91.593 E0.12162
G1 X110.27 Y91.256 E0.13485
G1 X110.993 Y90.984 E0.14859
G1 X111.751 Y90.746 E0.16271
G1 X112.321 Y90.594 E0.17319
G1 X113.098 Y90.421 E0.18734
G1 X113.832 Y90.298 E0.20057
G1 X114.575 Y90.255 E0.2138
G1 X115.319 Y90.292 E0.22705
G1 X116.054 Y90.408 E0.24027
G1 X116.543 Y90.541 E0.24928
G1 X117.067 Y90.402 E0.25892
G1 X117.802 Y90.289 E0.27214
G1 X118.546 Y90.255 E0.28538
G1 X119.289 Y90.302 E0.29861
G1 X119.996 Y90.421 E0.31135
G1 X120.78 Y90.596 E0.32563
G1 X121.348 Y90.749 E0.33609
G1 X122.099 Y90.985 E0.35008
G1 X122.796 Y91.246 E0.36331
G1 X123.461 Y91.58 E0.37654
G1 X124.086 Y91.984 E0.38977
G1 X124.665 Y92.452 E0.403
G1 X125.025 Y92.815 E0.41209
G1 X125.525 Y92.948 E0.42129
G1 X126.219 Y93.215 E0.43451
G1 X126.881 Y93.556 E0.44774
G1 X127.503 Y93.965 E0.46098
G1 X128.072 Y94.434 E0.47408
G1 X128.659 Y94.973 E0.48825
G1 X129.078 Y95.393 E0.4988
G1 X129.612 Y95.975 E0.51284
G1 X130.085 Y96.55 E0.52607
G1 X130.494 Y97.172 E0.53931
G1 X130.834 Y97.834 E0.55253
G1 X131.1 Y98.529 E0.56576
G1 X131.231 Y99.02 E0.5748
G1 X131.575 Y99.361 E0.58341
G1 X132.046 Y99.937 E0.59663
G1 X132.452 Y100.561 E0.60987
G1 X132.789 Y101.225 E0.6231
G1 X133.06 Y101.946 E0.63679
G1 X133.297 Y102.7 E0.65084
G1 X133.45 Y103.271 E0.66135
G1 X133.624 Y104.052 E0.67558
G1 X133.747 Y104.786 E0.6888
G1 X133.79 Y105.529 E0.70203
G1 X133.753 Y106.273 E0.71528
G1 X133.637 Y107.008 E0.7285
G1 X133.504 Y107.498 E0.73753
G1 X133.643 Y108.022 E0.74717
G1 X133.756 Y108.757 E0.76038
G1 X133.79 Y109.501 E0.77362
G1 X133.743 Y110.244 E0.78686
G1 X133.624 Y110.949 E0.79957
G1 X133.449 Y111.734 E0.81386
G1 X133.295 Y112.306 E0.82439
G1 X133.059 Y113.056 E0.83837
G1 X132.798 Y113.753 E0.8516
G1 X132.464 Y114.418 E0.86483
G1 X132.06 Y115.043 E0.87806
G1 X131.591 Y115.622 E0.8913
G1 X131.23 Y115.98 E0.90034
G1 X131.097 Y116.48 E0.90954
G1 X130.83 Y117.174 E0.92275
G1 X130.489 Y117.836 E0.93599
G1 X130.08 Y118.458 E0.94922
G1 X129.611 Y119.027 E0.96233
G1 X129.072 Y119.614 E0.9765
G1 X128.652 Y120.033 E0.98704
G1 X128.07 Y120.567 E1.00108
G1 X127.495 Y121.04 E1.01432
G1 X126.873 Y121.449 E1.02755
G1 X126.211 Y121.789 E1.04078
G1 X125.516 Y122.055 E1.05401
G1 X125.026 Y122.185 E1.06302
G1 X124.663 Y122.55 E1.07217
G1 X124.084 Y123.018 E1.08541
G1 X123.459 Y123.421 E1.09863
G1 X122.793 Y123.755 E1.11187
G1 X122.094 Y124.017 E1.12514
G1 X121.335 Y124.255 E1.13928
G1 X120.77 Y124.406 E1.14967
G1 X119.994 Y124.579 E1.16381
G1 X119.26 Y124.702 E1.17704
G1 X118.517 Y124.745 E1.19027
G1 X117.773 Y124.708 E1.20351
G1 X117.038 Y124.592 E1.21674
G1 X116.546 Y124.459 E1.2258
G1 X116.023 Y124.598 E1.23541
G1 X115.288 Y124.711 E1.24863
G1 X114.544 Y124.745 E1.26187
G1 X113.801 Y124.698 E1.27511
G1 X113.096 Y124.579 E1.28782
G1 X112.311 Y124.404 E1.30211
G1 X111.739 Y124.25 E1.31264
G1 X110.989 Y124.014 E1.32662
G1 X110.292 Y123.753 E1.33985
G1 X109.627 Y123.419 E1.35308
G1 X109.002 Y123.015 E1.36631
G1 X108.423 Y122.546 E1.37955
G1 X108.065 Y122.186 E1.38858
G1 X107.564 Y122.052 E1.3978
G1 X106.87 Y121.785 E1.41101
G1 X106.208 Y121.444 E1.42425
G1 X105.586 Y121.035 E1.43748
G1 X105.013 Y120.562 E1.45069
G1 X104.427 Y120.023 E1.46484
G1 X104.016 Y119.612 E1.47518
G1 X103.481 Y119.03 E1.48923
G1 X103.008 Y118.456 E1.50245
G1 X102.598 Y117.834 E1.51569
G1 X102.258 Y117.172 E1.52892
G1 X101.991 Y116.477 E1.54216
G1 X101.859 Y115.981 E1.55128
G1 X101.494 Y115.618 E1.56043
G1 X101.026 Y115.039 E1.57366
G1 X100.623 Y114.414 E1.58688
G1 X100.289 Y113.748 E1.60013
G1 X100.026 Y113.044 E1.61349
G1 X99.789 Y112.286 E1.6276
G1 X99.641 Y111.734 E1.63776
G1 X99.467 Y110.958 E1.6519
G1 X99.343 Y110.224 E1.66513
G1 X99.299 Y109.481 E1.67836
G1 X99.335 Y108.738 E1.69159
G1 X99.45 Y108.002 E1.70483
G1 X99.585 Y107.502 E1.71403
G1 X99.442 Y106.957 E1.72405
G1 X99.331 Y106.221 E1.73728
G1 X99.299 Y105.478 E1.7505
G1 X99.348 Y104.735 E1.76374
G1 X99.467 Y104.039 E1.77629
G1 X99.644 Y103.251 E1.79065
G1 X99.794 Y102.696 E1.80087
G1 X100.028 Y101.95 E1.81476
G1 X100.288 Y101.253 E1.82799
G1 X100.622 Y100.587 E1.84123
G1 X101.025 Y99.962 E1.85445
G1 X101.493 Y99.383 E1.86768
G1 X101.859 Y99.019 E1.87686
G1 X101.993 Y98.517 E1.8861
G1 X102.261 Y97.822 E1.89934
G1 X102.602 Y97.161 E1.91256
G1 X103.012 Y96.539 E1.9258
G1 X103.479 Y95.974 E1.93883
G1 X104.019 Y95.386 E1.95302
M204 S625
M205 X6 Y6
G0 F5000 X104.328 Y95.67
M204 S500
M205 X5 Y5
G1 F1200 X104.714 Y95.284 E1.96273
G1 X105.294 Y94.75 E1.97674
G1 X105.851 Y94.291 E1.98957
G1 X106.455 Y93.897 E2.00239
G1 X107.099 Y93.572 E2.01521
G1 X107.775 Y93.321 E2.02803
G1 X108.277 Y93.195 E2.03723
G1 X108.721 Y92.751 E2.04839
G1 X109.284 Y92.299 E2.06123
G1 X109.893 Y91.913 E2.07404
G1 X110.542 Y91.597 E2.08688
G1 X111.119 Y91.385 E2.0978
G1 X111.877 Y91.147 E2.11193
G1 X112.412 Y91.004 E2.12177
G1 X113.189 Y90.831 E2.13592
G1 X113.901 Y90.713 E2.14875
G1 X114.621 Y90.675 E2.16156
G1 X115.341 Y90.717 E2.17439
G1 X116.053 Y90.838 E2.18722
G1 X116.535 Y90.976 E2.19614
G1 X117.196 Y90.804 E2.20828
G1 X117.91 Y90.701 E2.2211
G1 X118.631 Y90.677 E2.23392
G1 X119.35 Y90.733 E2.24674
G1 X119.904 Y90.831 E2.25674
G1 X120.688 Y91.006 E2.27102
G1 X121.222 Y91.149 E2.28085
G1 X121.973 Y91.385 E2.29484
G1 X122.648 Y91.639 E2.30766
G1 X123.291 Y91.967 E2.3205
G1 X123.893 Y92.363 E2.3333
G1 X124.449 Y92.824 E2.34614
G1 X124.801 Y93.188 E2.35514
G1 X125.437 Y93.361 E2.36686
G1 X126.108 Y93.626 E2.37968
G1 X126.746 Y93.964 E2.39252
G1 X127.342 Y94.37 E2.40534
G1 X127.788 Y94.744 E2.41568
G1 X128.375 Y95.283 E2.42985
G1 X128.769 Y95.677 E2.43976
G1 X129.303 Y96.259 E2.4538
G1 X129.76 Y96.817 E2.46662
G1 X130.153 Y97.421 E2.47943
G1 X130.477 Y98.066 E2.49226
G1 X130.727 Y98.743 E2.50509
G1 X130.848 Y99.231 E2.51402
G1 X131.294 Y99.676 E2.52522
G1 X131.746 Y100.239 E2.53806
G1 X132.132 Y100.848 E2.55087
G1 X132.448 Y101.497 E2.5637
G1 X132.659 Y102.072 E2.57459
G1 X132.896 Y102.826 E2.58864
G1 X133.04 Y103.362 E2.59851
G1 X133.214 Y104.143 E2.61273
G1 X133.332 Y104.855 E2.62556
G1 X133.37 Y105.575 E2.63838
G1 X133.328 Y106.296 E2.65122
G1 X133.207 Y107.007 E2.66404
G1 X133.068 Y107.489 E2.67295
G1 X133.241 Y108.151 E2.68512
G1 X133.344 Y108.865 E2.69794
G1 X133.368 Y109.586 E2.71076
G1 X133.312 Y110.305 E2.72358
G1 X133.214 Y110.858 E2.73357
G1 X133.039 Y111.643 E2.74786
G1 X132.895 Y112.18 E2.75775
G1 X132.659 Y112.93 E2.77172
G1 X132.404 Y113.605 E2.78455
G1 X132.077 Y114.248 E2.79737
G1 X131.68 Y114.85 E2.81019
G1 X131.22 Y115.406 E2.82302
G1 X130.857 Y115.755 E2.83197
G1 X130.684 Y116.392 E2.8437
G1 X130.419 Y117.063 E2.85653
G1 X130.081 Y117.701 E2.86936
G1 X129.675 Y118.297 E2.88218
G1 X129.301 Y118.743 E2.89253
G1 X128.762 Y119.33 E2.90669
G1 X128.368 Y119.724 E2.9166
G1 X127.786 Y120.258 E2.93064
G1 X127.228 Y120.715 E2.94346
G1 X126.624 Y121.108 E2.95627
G1 X125.979 Y121.432 E2.9691
G1 X125.302 Y121.682 E2.98193
G1 X124.816 Y121.803 E2.99083
G1 X124.348 Y122.267 E3.00255
G1 X123.784 Y122.716 E3.01536
G1 X123.173 Y123.1 E3.02819
G1 X122.523 Y123.414 E3.04102
G1 X121.969 Y123.616 E3.0515
G1 X121.21 Y123.854 E3.06564
G1 X120.679 Y123.996 E3.07541
G1 X119.903 Y124.169 E3.08955
G1 X119.191 Y124.287 E3.10237
G1 X118.47 Y124.325 E3.11521
G1 X117.75 Y124.283 E3.12803
G1 X117.039 Y124.162 E3.14085
G1 X116.556 Y124.023 E3.14978
G1 X115.894 Y124.196 E3.16195
G1 X115.18 Y124.299 E3.17477
G1 X114.459 Y124.323 E3.18759
G1 X113.74 Y124.267 E3.20041
G1 X113.187 Y124.169 E3.2104
G1 X112.402 Y123.994 E3.22469
G1 X111.865 Y123.85 E3.23458
G1 X111.115 Y123.614 E3.24855
G1 X110.44 Y123.359 E3.26138
G1 X109.797 Y123.032 E3.2742
G1 X109.195 Y122.635 E3.28702
G1 X108.639 Y122.175 E3.29985
G1 X108.29 Y121.812 E3.3088
G1 X107.652 Y121.639 E3.32055
G1 X106.981 Y121.374 E3.33337
G1 X106.343 Y121.036 E3.34621
G1 X105.747 Y120.63 E3.35903
G1 X105.297 Y120.252 E3.36947
G1 X104.711 Y119.713 E3.38363
G1 X104.325 Y119.328 E3.39332
G1 X103.79 Y118.746 E3.40737
G1 X103.332 Y118.188 E3.4202
G1 X102.939 Y117.584 E3.43301
G1 X102.614 Y116.939 E3.44585
G1 X102.364 Y116.263 E3.45866
G1 X102.241 Y115.771 E3.46768
G1 X101.777 Y115.303 E3.47939
G1 X101.328 Y114.739 E3.49221
G1 X100.944 Y114.128 E3.50504
G1 X100.63 Y113.478 E3.51787
G1 X100.427 Y112.919 E3.52844
G1 X100.19 Y112.161 E3.54256
G1 X100.051 Y111.642 E3.55211
G1 X99.877 Y110.866 E3.56625
G1 X99.758 Y110.155 E3.57906
G1 X99.719 Y109.434 E3.59189
G1 X99.76 Y108.714 E3.60471
G1 X99.88 Y108.003 E3.61753
G1 X100.02 Y107.512 E3.62661
G1 X99.844 Y106.829 E3.63915
G1 X99.743 Y106.115 E3.65196
G1 X99.721 Y105.394 E3.66479
G1 X99.779 Y104.675 E3.67761
G1 X99.877 Y104.131 E3.68743
G1 X100.054 Y103.343 E3.70179
G1 X100.194 Y102.822 E3.71138
G1 X100.428 Y102.076 E3.72528
G1 X100.682 Y101.4 E3.73812
G1 X101.009 Y100.757 E3.75094
G1 X101.405 Y100.154 E3.76376
G1 X101.865 Y99.599 E3.77658
G1 X102.232 Y99.244 E3.78565
G1 X102.406 Y98.604 E3.79744
G1 X102.672 Y97.934 E3.81026
G1 X103.01 Y97.296 E3.82309
G1 X103.416 Y96.7 E3.83591
G1 X103.788 Y96.258 E3.84618
G1 X104.328 Y95.67 E3.86037
M204 S625
M205 X6 Y6
G0 F5000 X104.638 Y95.954
M204 S500
M205 X5 Y5
G1 F1200 X104.998 Y95.593 E3.86943
G1 X105.578 Y95.059 E3.88345
G1 X106.118 Y94.616 E3.89586
G1 X106.704 Y94.239 E3.90825
G1 X107.33 Y93.93 E3.92066
G1 X107.987 Y93.696 E3.93306
G1 X108.498 Y93.577 E3.94238
G1 X108.541 Y93.524 E3.9436
G1 X109.036 Y93.033 E3.95599
G1 X109.584 Y92.601 E3.96839
G1 X110.179 Y92.236 E3.9808
G1 X110.811 Y91.94 E3.99321
G1 X111.245 Y91.786 E4.00139
G1 X112.003 Y91.548 E4.01552
G1 X112.503 Y91.414 E4.02472
G1 X113.28 Y91.241 E4.03887
G1 X113.969 Y91.128 E4.05128
G1 X114.666 Y91.095 E4.06368
G1 X115.362 Y91.142 E4.07608
G1 X116.048 Y91.269 E4.08848
G1 X116.541 Y91.42 E4.09765
G1 X116.648 Y91.379 E4.09969
G1 X117.324 Y91.207 E4.11209
G1 X118.016 Y91.113 E4.1245
G1 X118.713 Y91.099 E4.13689
G1 X119.408 Y91.165 E4.1493
G1 X119.813 Y91.241 E4.15663
G1 X120.597 Y91.416 E4.17091
G1 X121.096 Y91.55 E4.18009
G1 X121.847 Y91.786 E4.19408
G1 X122.499 Y92.033 E4.20648
G1 X123.119 Y92.353 E4.21888
G1 X123.699 Y92.742 E4.2313
G1 X124.23 Y93.194 E4.24369
G1 X124.582 Y93.572 E4.25287
G1 X124.676 Y93.587 E4.25456
G1 X125.348 Y93.774 E4.26696
G1 X125.995 Y94.036 E4.27937
G1 X126.607 Y94.371 E4.29177
G1 X127.177 Y94.774 E4.30418
G1 X127.504 Y95.053 E4.31182
G1 X128.091 Y95.592 E4.32599
G1 X128.459 Y95.961 E4.33525
G1 X128.993 Y96.543 E4.34929
G1 X129.435 Y97.083 E4.3617
G1 X129.812 Y97.67 E4.3741
G1 X130.119 Y98.297 E4.38651
G1 X130.352 Y98.954 E4.3989
G1 X130.467 Y99.453 E4.408
G1 X130.521 Y99.496 E4.40923
G1 X131.012 Y99.991 E4.42163
G1 X131.444 Y100.539 E4.43403
G1 X131.809 Y101.134 E4.44644
G1 X132.105 Y101.766 E4.45884
G1 X132.259 Y102.198 E4.467
G1 X132.496 Y102.952 E4.48105
G1 X132.63 Y103.454 E4.49028
G1 X132.804 Y104.235 E4.5045
G1 X132.917 Y104.923 E4.5169
G1 X132.95 Y105.62 E4.5293
G1 X132.903 Y106.316 E4.5417
G1 X132.776 Y107.003 E4.55412
G1 X132.626 Y107.497 E4.5633
G1 X132.666 Y107.603 E4.56531
G1 X132.838 Y108.279 E4.57771
G1 X132.932 Y108.971 E4.59013
G1 X132.946 Y109.668 E4.60252
G1 X132.88 Y110.363 E4.61493
G1 X132.804 Y110.766 E4.62222
G1 X132.629 Y111.551 E4.63651
G1 X132.494 Y112.054 E4.64577
G1 X132.258 Y112.804 E4.65975
G1 X132.011 Y113.456 E4.67214
G1 X131.691 Y114.076 E4.68455
G1 X131.302 Y114.656 E4.69696
G1 X130.849 Y115.186 E4.70935
G1 X130.473 Y115.537 E4.7185
G1 X130.458 Y115.631 E4.72019
G1 X130.271 Y116.303 E4.73259
G1 X130.009 Y116.95 E4.745
G1 X129.674 Y117.562 E4.7574
G1 X129.271 Y118.132 E4.76981
G1 X128.992 Y118.459 E4.77745
G1 X128.453 Y119.046 E4.79161
G1 X128.084 Y119.414 E4.80088
G1 X127.502 Y119.948 E4.81492
G1 X126.962 Y120.39 E4.82732
G1 X126.375 Y120.767 E4.83972
G1 X125.748 Y121.074 E4.85213
G1 X125.091 Y121.307 E4.86453
G1 X124.591 Y121.423 E4.87365
G1 X124.532 Y121.495 E4.8753
G1 X124.035 Y121.984 E4.8877
G1 X123.485 Y122.413 E4.9001
G1 X122.889 Y122.776 E4.9125
G1 X122.256 Y123.069 E4.9249
G1 X121.843 Y123.215 E4.93269
G1 X121.084 Y123.453 E4.94683
G1 X120.587 Y123.586 E4.95597
G1 X119.811 Y123.759 E4.97011
G1 X119.123 Y123.872 E4.9825
G1 X118.426 Y123.905 E4.9949
G1 X117.73 Y123.858 E5.0073
G1 X117.043 Y123.732 E5.01972
G1 X116.548 Y123.581 E5.02892
G1 X116.442 Y123.621 E5.03093
G1 X115.766 Y123.793 E5.04333
G1 X115.074 Y123.887 E5.05575
G1 X114.377 Y123.901 E5.06814
G1 X113.682 Y123.835 E5.08055
G1 X113.279 Y123.759 E5.08784
G1 X112.494 Y123.584 E5.10214
G1 X111.991 Y123.449 E5.11139
G1 X111.241 Y123.213 E5.12537
G1 X110.589 Y122.966 E5.13776
G1 X109.969 Y122.646 E5.15017
G1 X109.389 Y122.257 E5.16258
G1 X108.859 Y121.804 E5.17497
G1 X108.508 Y121.428 E5.18412
G1 X108.413 Y121.413 E5.18583
G1 X107.741 Y121.226 E5.19823
G1 X107.094 Y120.964 E5.21063
G1 X106.482 Y120.629 E5.22304
G1 X105.912 Y120.226 E5.23545
G1 X105.581 Y119.943 E5.24319
G1 X104.995 Y119.404 E5.25734
G1 X104.634 Y119.043 E5.26642
G1 X104.099 Y118.461 E5.28047
G1 X103.658 Y117.922 E5.29285
G1 X103.28 Y117.335 E5.30526
G1 X102.972 Y116.709 E5.31766
G1 X102.738 Y116.051 E5.33007
G1 X102.621 Y115.545 E5.33931
G1 X102.549 Y115.487 E5.34095
G1 X102.06 Y114.99 E5.35334
G1 X101.631 Y114.44 E5.36574
G1 X101.268 Y113.844 E5.37815
G1 X100.975 Y113.211 E5.39055
G1 X100.827 Y112.793 E5.39843
G1 X100.59 Y112.035 E5.41255
G1 X100.461 Y111.55 E5.42147
G1 X100.287 Y110.774 E5.4356
G1 X100.173 Y110.086 E5.448
G1 X100.139 Y109.389 E5.46041
G1 X100.185 Y108.693 E5.4728
G1 X100.311 Y108.007 E5.4852
G1 X100.464 Y107.502 E5.49458
G1 X100.418 Y107.379 E5.49692
G1 X100.247 Y106.702 E5.50933
G1 X100.156 Y106.01 E5.52174
G1 X100.144 Y105.313 E5.53413
G1 X100.212 Y104.618 E5.54654
G1 X100.287 Y104.223 E5.55369
G1 X100.464 Y103.435 E5.56804
G1 X100.595 Y102.947 E5.57703
G1 X100.829 Y102.201 E5.59092
G1 X101.076 Y101.549 E5.60332
G1 X101.395 Y100.928 E5.61573
G1 X101.784 Y100.349 E5.62813
G1 X102.236 Y99.818 E5.64052
G1 X102.617 Y99.462 E5.64979
G1 X102.632 Y99.366 E5.65152
G1 X102.819 Y98.694 E5.66392
G1 X103.082 Y98.047 E5.67633
G1 X103.417 Y97.435 E5.68874
G1 X103.82 Y96.866 E5.70113
G1 X104.098 Y96.542 E5.70872
G1 X104.638 Y95.954 E5.72291
M204 S625
M205 X6 Y6
G0 F5000 X104.947 Y96.238
M204 S500
M205 X5 Y5
G1 F1200 X105.283 Y95.902 E5.73136
G1 X105.863 Y95.368 E5.74537
G1 X106.384 Y94.942 E5.75733
G1 X106.952 Y94.581 E5.7693
G1 X107.559 Y94.29 E5.78126
G1 X108.196 Y94.073 E5.79323
G1 X108.717 Y93.976 E5.80265
G1 X108.869 Y93.787 E5.80696
G1 X109.35 Y93.316 E5.81892
G1 X109.883 Y92.906 E5.83088
G1 X110.462 Y92.561 E5.84286
G1 X111.37 Y92.186 E5.86032
G1 X112.128 Y91.948 E5.87444
G1 X112.595 Y91.824 E5.88303
G1 X113.372 Y91.651 E5.89718
G1 X114.036 Y91.543 E5.90914
G1 X114.709 Y91.516 E5.92112
G1 X115.38 Y91.568 E5.93308
G1 X116.04 Y91.7 E5.94504
G1 X116.531 Y91.873 E5.9543
G1 X116.797 Y91.772 E5.95935
G1 X117.451 Y91.61 E5.97133
G1 X118.119 Y91.527 E5.9833
G1 X118.792 Y91.523 E5.99526
G1 X119.721 Y91.651 E6.01193
G1 X120.505 Y91.826 E6.02621
G1 X120.97 Y91.951 E6.03477
